; generated by PrusaSlicer 2.3.1+x64 on 2021-08-30 at 12:24:37 UTC

; 

; external perimeters extrusion width = 0.45mm
; perimeters extrusion width = 0.45mm
; infill extrusion width = 0.45mm
; solid infill extrusion width = 0.45mm
; top infill extrusion width = 0.40mm
; support material extrusion width = 0.35mm
; first layer extrusion width = 0.42mm

M73 P0 R185
M73 Q0 S186
M201 X1000 Y1000 Z200 E5000 ; sets maximum accelerations, mm/sec^2
M203 X200 Y200 Z12 E120 ; sets maximum feedrates, mm/sec
M204 P1250 R1250 T1250 ; sets acceleration (P, T) and retract acceleration (R), mm/sec^2
M205 X8.00 Y8.00 Z0.40 E4.50 ; sets the jerk limits, mm/sec
M205 S0 T0 ; sets the minimum extruding and travel feed rate, mm/sec
M107
;TYPE:Custom
M862.3 P "MK3S" ; printer model check
M862.1 P0.4 ; nozzle diameter check
M115 U3.10.0 ; tell printer latest fw version
G90 ; use absolute coordinates
M83 ; extruder relative mode
M104 S215 ; set extruder temp
M140 S60 ; set bed temp
M190 S60 ; wait for bed temp
M109 S215 ; wait for extruder temp
G28 W ; home all without mesh bed level
G80 ; mesh bed leveling
G1 Y-3.0 F1000.0 ; go outside print area
G92 E0.0
G1 X60.0 E9.0 F1000.0 ; intro line
G1 X100.0 E12.5 F1000.0 ; intro line
G92 E0.0
M221 S95

; Don't change E values below. Excessive value can damage the printer.

M907 E538 ; set extruder motor current
G21 ; set units to millimeters
G90 ; use absolute coordinates
M83 ; use relative distances for extrusion
M900 K0.05 ; Filament gcode LA 1.5
M900 K30 ; Filament gcode LA 1.0
;LAYER_CHANGE
;Z:0.2
;HEIGHT:0.2
;BEFORE_LAYER_CHANGE
G92 E0.0
;0.2


G1 E-0.80000 F2100.000
G1 Z0.400 F10800.000
;AFTER_LAYER_CHANGE
;0.2
G1 X82.030 Y9.812
G1 Z0.200
G1 E0.80000 F2100.000
M204 S1000
;TYPE:Skirt
;WIDTH:0.42
G1 F1200.000
G1 X83.271 Y9.550 E0.03978
G1 X157.971 Y9.616 E2.34216
G1 X159.071 Y9.812 E0.03503
G1 X159.839 Y10.207 E0.02707
G1 X160.660 Y10.933 E0.03438
G1 X161.297 Y12.028 E0.03970
G1 X161.449 Y12.593 E0.01833
G1 X166.589 Y44.321 E1.00780
G1 X166.593 Y96.758 E1.64412
G1 X161.317 Y128.618 E1.01253
M73 P0 R184
G1 X161.066 Y129.342 E0.02404
G1 X160.494 Y130.221 E0.03288
G1 X159.705 Y130.895 E0.03255
G1 X159.047 Y131.244 E0.02335
G1 X157.737 Y131.471 E0.04169
G1 X83.273 Y131.401 E2.33476
G1 X82.138 Y131.210 E0.03610
G1 X81.360 Y130.818 E0.02730
G1 X80.528 Y130.087 E0.03474
G1 X79.888 Y128.990 E0.03982
G1 X79.740 Y128.452 E0.01750
G1 X79.662 Y127.723 E0.02298
G1 X79.769 Y13.215 E3.59031
G1 X79.909 Y12.231 E0.03115
G1 X80.100 Y11.706 E0.01753
G1 X80.474 Y11.084 E0.02276
G1 X81.004 Y10.490 E0.02496
G1 X81.980 Y9.845 E0.03667
; printing object top.stl id:0 copy 0
;WIPE_START
G1 F8640.000
G1 X83.271 Y9.550 E-0.30591
G1 X85.238 Y9.551 E-0.45409
;WIPE_END
G1 E-0.04000 F2100.000
G1 Z0.600 F10800.000
G1 X164.216 Y96.713
G1 Z0.200
G1 E0.80000 F2100.000
;TYPE:Support material
G1 F1200.000
G1 X164.216 Y44.471 E1.63798
G1 X163.462 Y44.471 E0.02365
G1 X163.462 Y96.543 E1.63266
G1 X162.708 Y96.543 E0.02365
G1 X162.708 Y44.471 E1.63266
G1 X161.954 Y44.471 E0.02365
G1 X161.954 Y96.543 E1.63266
G1 X161.200 Y96.543 E0.02365
G1 X161.200 Y44.471 E1.63266
M73 Q0 S185
G1 X160.445 Y44.471 E0.02365
G1 X160.445 Y96.543 E1.63266
G1 X159.691 Y96.543 E0.02365
G1 X159.691 Y44.471 E1.63266
G1 X158.937 Y44.471 E0.02365
G1 X158.937 Y96.713 E1.63798
;WIPE_START
G1 F8640.000
G1 X158.937 Y93.421 E-0.76000
;WIPE_END
G1 E-0.04000 F2100.000
G1 Z0.600 F10800.000
G1 X95.176 Y74.316
G1 Z0.200
G1 E0.80000 F2100.000
;TYPE:Perimeter
G1 F1200.000
G1 X95.178 Y74.742 E0.01335
G1 X95.159 Y74.865 E0.00391
G1 X95.080 Y75.052 E0.00636
G1 X94.877 Y75.217 E0.00821
G1 X95.154 Y74.364 E0.02814
;WIPE_START
G1 F8640.000
G1 X95.178 Y74.742 E-0.08747
G1 X95.159 Y74.865 E-0.02881
G1 X95.080 Y75.052 E-0.04684
G1 X94.877 Y75.217 E-0.06048
G1 X95.154 Y74.364 E-0.20722
;WIPE_END
G1 E-0.36918 F2100.000
G1 Z0.600 F10800.000
G1 X92.077 Y73.694
G1 Z0.200
G1 E0.80000 F2100.000
G1 F1200.000
G1 X91.644 Y75.204 E0.04924
G1 X91.573 Y75.367 E0.00559
G1 X91.535 Y75.400 E0.00157
G1 X91.439 Y75.328 E0.00375
G1 X91.312 Y75.056 E0.00942
G1 X91.275 Y74.664 E0.01232
G1 X91.322 Y74.280 E0.01216
G1 X91.456 Y74.022 E0.00911
G1 X91.573 Y73.923 E0.00482
G1 X91.729 Y73.821 E0.00582
G1 X92.021 Y73.715 E0.00975
;WIPE_START
G1 F8640.000
G1 X91.644 Y75.204 E-0.35466
G1 X91.573 Y75.367 E-0.04117
G1 X91.535 Y75.400 E-0.01157
G1 X91.439 Y75.328 E-0.02763
G1 X91.312 Y75.056 E-0.06935
G1 X91.275 Y74.664 E-0.09075
G1 X91.322 Y74.280 E-0.08954
G1 X91.456 Y74.022 E-0.06710
G1 X91.483 Y73.999 E-0.00824
;WIPE_END
G1 E-0.04000 F2100.000
G1 Z0.600 F10800.000
G1 X92.787 Y78.358
G1 Z0.200
G1 E0.80000 F2100.000
G1 F1200.000
G1 X92.723 Y78.900 E0.01712
G1 X92.615 Y78.737 E0.00612
G1 X92.351 Y78.487 E0.01142
G1 X92.730 Y78.376 E0.01237
G1 X93.402 Y78.029 F10800.000
G1 F1200.000
G1 X93.569 Y77.906 E0.00650
G1 X93.872 Y77.626 E0.01293
G1 X94.118 Y77.293 E0.01298
G1 X94.136 Y78.276 E0.03083
G1 X93.459 Y78.048 E0.02239
;WIPE_START
G1 F8640.000
G1 X93.569 Y77.906 E-0.04149
G1 X93.872 Y77.626 E-0.09521
G1 X94.118 Y77.293 E-0.09560
G1 X94.136 Y78.276 E-0.22704
G1 X93.459 Y78.048 E-0.16488
;WIPE_END
G1 E-0.17577 F2100.000
G1 Z0.600 F10800.000
G1 X92.137 Y65.517
G1 Z0.200
G1 E0.80000 F2100.000
G1 F1200.000
G1 X91.459 Y65.364 E0.02181
G1 X91.260 Y65.276 E0.00681
G1 X91.194 Y65.184 E0.00355
G1 X91.184 Y65.098 E0.00271
G1 X91.199 Y64.976 E0.00385
G1 X91.253 Y64.850 E0.00428
G1 X91.294 Y64.806 E0.00190
G1 X91.450 Y64.728 E0.00548
G1 X91.674 Y64.654 E0.00738
G1 X91.919 Y64.624 E0.00775
G1 X92.536 Y64.625 E0.01933
G1 X92.739 Y64.653 E0.00644
G1 X92.923 Y64.720 E0.00611
G1 X93.047 Y64.787 E0.00445
G1 X93.079 Y64.824 E0.00153
G1 X93.116 Y64.884 E0.00219
G1 X93.146 Y65.060 E0.00561
G1 X93.130 Y65.182 E0.00386
G1 X93.103 Y65.230 E0.00172
G1 X93.031 Y65.285 E0.00284
G1 X92.177 Y65.492 E0.02755
;WIPE_START
G1 F8640.000
G1 X91.459 Y65.364 E-0.16854
G1 X91.260 Y65.276 E-0.05017
G1 X91.194 Y65.184 E-0.02612
G1 X91.184 Y65.098 E-0.01996
G1 X91.199 Y64.976 E-0.02839
G1 X91.253 Y64.850 E-0.03153
G1 X91.294 Y64.806 E-0.01398
G1 X91.450 Y64.728 E-0.04037
G1 X91.674 Y64.654 E-0.05437
G1 X91.919 Y64.624 E-0.05708
G1 X92.536 Y64.625 E-0.14239
G1 X92.739 Y64.653 E-0.04745
G1 X92.923 Y64.720 E-0.04496
G1 X93.047 Y64.787 E-0.03274
G1 X93.053 Y64.794 E-0.00196
;WIPE_END
G1 E-0.04000 F2100.000
G1 Z0.600 F10800.000
G1 X94.227 Y58.795
G1 Z0.200
G1 E0.80000 F2100.000
G1 F1200.000
G1 X96.534 Y58.797 E0.07234
G1 X96.125 Y58.846 E0.01292
G1 X95.391 Y59.056 E0.02392
G1 X94.641 Y58.844 E0.02443
G1 X94.287 Y58.802 E0.01120
;WIPE_START
G1 F8640.000
G1 X96.534 Y58.797 E-0.51894
G1 X96.125 Y58.846 E-0.09513
G1 X95.517 Y59.020 E-0.14592
;WIPE_END
G1 E-0.04000 F2100.000
G1 Z0.600 F10800.000
G1 X92.645 Y45.266
G1 Z0.200
G1 E0.80000 F2100.000
G1 F1200.000
G1 X92.139 Y45.266 E0.01585
G1 X91.904 Y45.285 E0.00740
G1 X92.041 Y44.842 E0.01454
G1 X92.137 Y44.440 E0.01296
G1 X92.287 Y43.601 E0.02671
G1 X92.428 Y44.368 E0.02444
G1 X92.631 Y45.208 E0.02708
;WIPE_START
G1 F8640.000
G1 X92.139 Y45.266 E-0.11429
G1 X91.904 Y45.285 E-0.05452
G1 X92.041 Y44.842 E-0.10706
G1 X92.137 Y44.440 E-0.09541
G1 X92.287 Y43.601 E-0.19673
G1 X92.428 Y44.368 E-0.18000
G1 X92.440 Y44.419 E-0.01199
;WIPE_END
G1 E-0.04000 F2100.000
G1 Z0.600 F10800.000
G1 X92.156 Y42.889
G1 Z0.200
G1 E0.80000 F2100.000
G1 F1200.000
G1 X91.480 Y42.735 E0.02173
G1 X91.281 Y42.647 E0.00682
G1 X91.216 Y42.555 E0.00355
G1 X91.206 Y42.469 E0.00271
G1 X91.220 Y42.347 E0.00385
G1 X91.274 Y42.222 E0.00428
G1 X91.315 Y42.177 E0.00190
G1 X91.471 Y42.100 E0.00548
G1 X91.695 Y42.026 E0.00738
G1 X91.940 Y41.995 E0.00775
G1 X92.557 Y41.997 E0.01934
G1 X92.761 Y42.025 E0.00644
G1 X92.944 Y42.091 E0.00611
G1 X93.068 Y42.159 E0.00445
G1 X93.100 Y42.196 E0.00153
G1 X93.137 Y42.255 E0.00219
G1 X93.168 Y42.432 E0.00561
G1 X93.151 Y42.554 E0.00386
G1 X93.125 Y42.602 E0.00172
G1 X93.053 Y42.657 E0.00284
G1 X92.197 Y42.864 E0.02759
;WIPE_START
G1 F8640.000
G1 X91.480 Y42.735 E-0.16826
G1 X91.281 Y42.647 E-0.05019
G1 X91.216 Y42.555 E-0.02612
G1 X91.206 Y42.469 E-0.01995
G1 X91.220 Y42.347 E-0.02839
G1 X91.274 Y42.222 E-0.03153
G1 X91.315 Y42.177 E-0.01398
G1 X91.471 Y42.100 E-0.04037
G1 X91.695 Y42.026 E-0.05437
G1 X91.940 Y41.995 E-0.05707
G1 X92.557 Y41.997 E-0.14239
G1 X92.761 Y42.025 E-0.04745
G1 X92.944 Y42.091 E-0.04496
G1 X93.068 Y42.159 E-0.03274
G1 X93.075 Y42.166 E-0.00222
;WIPE_END
G1 E-0.04000 F2100.000
G1 Z0.600 F10800.000
G1 X104.935 Y47.965
G1 Z0.200
G1 E0.80000 F2100.000
G1 F1200.000
G1 X151.095 Y48.008 E1.44732
G1 X151.052 Y94.168 E1.44732
G1 X104.892 Y94.125 E1.44732
G1 X104.935 Y48.025 E1.44544
G1 X105.312 Y48.342 F10800.000
;TYPE:External perimeter
G1 F1200.000
G1 X150.718 Y48.385 E1.42367
G1 X150.675 Y93.791 E1.42367
G1 X105.269 Y93.748 E1.42367
G1 X105.312 Y48.402 E1.42179
G1 X105.209 Y47.956 F10800.000
;WIPE_START
G1 F8640.000
G1 X108.603 Y48.401 E-0.76000
;WIPE_END
G1 E-0.04000 F2100.000
G1 Z0.600 F10800.000
G1 X88.538 Y30.093
G1 Z0.200
G1 E0.80000 F2100.000
;TYPE:Perimeter
G1 F1200.000
G1 X97.983 Y33.782 E0.31792
G1 X97.980 Y36.534 E0.08628
G1 X92.156 Y38.859 E0.19663
G1 X92.871 Y38.909 E0.02246
G1 X93.590 Y39.056 E0.02301
G1 X94.258 Y39.374 E0.02320
G1 X94.904 Y39.816 E0.02455
G1 X95.366 Y40.408 E0.02353
G1 X95.709 Y41.034 E0.02241
G1 X95.875 Y41.725 E0.02228
G1 X95.936 Y42.403 E0.02134
G1 X95.906 Y42.942 E0.01691
G1 X95.817 Y43.487 E0.01733
G1 X95.619 Y44.010 E0.01754
G1 X95.338 Y44.536 E0.01871
G1 X94.938 Y44.955 E0.01814
G1 X94.563 Y45.251 E0.01499
G1 X95.810 Y45.250 E0.03910
G1 X95.790 Y46.544 E0.04058
G1 X95.725 Y47.088 E0.01718
G1 X95.503 Y47.858 E0.02513
G1 X95.695 Y48.064 E0.00882
G1 X95.885 Y48.688 E0.02045
G1 X95.772 Y49.601 E0.02884
G1 X95.643 Y49.706 E0.00524
G1 X95.719 Y49.936 E0.00758
G1 X95.786 Y50.427 E0.01557
G1 X95.801 Y51.842 E0.04434
G1 X93.387 Y52.627 E0.07959
M73 P0 R183
G1 X95.798 Y53.398 E0.07935
G1 X95.786 Y54.777 E0.04324
G1 X95.752 Y55.210 E0.01360
G1 X95.670 Y55.750 E0.01713
G1 X96.172 Y55.720 E0.01577
G1 X97.962 Y55.712 E0.05614
G1 X97.956 Y61.863 E0.19286
G1 X96.665 Y61.842 E0.04049
G1 X96.122 Y61.777 E0.01714
G1 X95.389 Y61.566 E0.02392
G1 X94.639 Y61.776 E0.02443
G1 X94.084 Y61.840 E0.01751
G1 X93.897 Y61.841 E0.00586
G1 X94.236 Y62.003 E0.01180
G1 X94.883 Y62.444 E0.02455
G1 X95.345 Y63.036 E0.02353
G1 X95.688 Y63.663 E0.02241
G1 X95.854 Y64.354 E0.02228
G1 X95.915 Y65.031 E0.02134
G1 X95.885 Y65.570 E0.01691
G1 X95.795 Y66.115 E0.01733
G1 X95.598 Y66.638 E0.01754
G1 X95.317 Y67.165 E0.01870
G1 X94.918 Y67.582 E0.01808
G1 X94.495 Y67.922 E0.01704
G1 X94.014 Y68.164 E0.01688
G1 X92.699 Y68.644 E0.04390
G1 X92.266 Y66.235 E0.07676
G1 X91.849 Y68.667 E0.07738
G1 X90.514 Y68.266 E0.04372
G1 X89.982 Y68.034 E0.01818
G1 X89.509 Y67.691 E0.01834
G1 X89.058 Y67.261 E0.01951
G1 X88.740 Y66.711 E0.01993
G1 X88.513 Y66.158 E0.01872
G1 X88.409 Y65.577 E0.01853
G1 X88.374 Y64.999 E0.01813
G1 X88.438 Y64.323 E0.02132
G1 X88.607 Y63.637 E0.02214
G1 X88.952 Y63.017 E0.02225
G1 X89.413 Y62.432 E0.02336
G1 X90.059 Y61.996 E0.02442
G1 X90.378 Y61.845 E0.01107
G1 X88.509 Y61.847 E0.05861
G1 X88.514 Y55.705 E0.19257
G1 X93.233 Y55.717 E0.14796
G1 X88.234 Y53.884 E0.16695
G1 X87.781 Y53.687 E0.01551
G1 X87.319 Y53.423 E0.01667
G1 X86.979 Y53.149 E0.01370
G1 X86.690 Y52.807 E0.01405
G1 X86.467 Y52.412 E0.01422
G1 X86.383 Y52.189 E0.00748
G1 X86.316 Y51.972 E0.00711
G1 X86.226 Y51.484 E0.01556
G1 X86.211 Y50.772 E0.02232
G1 X86.231 Y50.492 E0.00880
G1 X86.407 Y49.444 E0.03334
G1 X89.202 Y49.129 E0.08818
G1 X88.989 Y50.553 E0.04516
G1 X88.995 Y50.781 E0.00714
G1 X89.031 Y50.847 E0.00238
G1 X89.285 Y50.993 E0.00917
G1 X92.274 Y49.868 E0.10014
G1 X92.800 Y49.709 E0.01724
G1 X92.939 Y48.877 E0.02644
G1 X92.992 Y48.748 E0.00436
G1 X92.995 Y48.533 E0.00674
G1 X92.883 Y48.462 E0.00417
G1 X92.814 Y48.440 E0.00227
G1 X91.983 Y48.343 E0.02624
G1 X88.521 Y48.324 E0.10854
G1 X88.524 Y45.236 E0.09684
G1 X89.808 Y45.254 E0.04026
G1 X89.536 Y45.066 E0.01037
G1 X89.080 Y44.634 E0.01971
G1 X88.761 Y44.083 E0.01997
G1 X88.534 Y43.530 E0.01872
G1 X88.431 Y42.948 E0.01853
G1 X88.396 Y42.371 E0.01813
G1 X88.460 Y41.694 E0.02132
G1 X88.628 Y41.009 E0.02214
G1 X88.973 Y40.388 E0.02225
G1 X89.270 Y40.012 E0.01503
G1 X88.529 Y40.308 E0.02502
G1 X88.532 Y36.875 E0.10764
G1 X90.321 Y36.189 E0.06008
G1 X90.323 Y34.134 E0.06444
G1 X88.535 Y33.482 E0.05967
G1 X88.538 Y30.153 E0.10438
;WIPE_START
G1 F8640.000
G1 X91.611 Y31.333 E-0.76000
;WIPE_END
G1 E-0.04000 F2100.000
G1 Z0.600 F10800.000
G1 X97.581 Y59.146
G1 Z0.200
G1 E0.80000 F2100.000
;TYPE:External perimeter
G1 F1200.000
G1 X97.579 Y61.480 E0.07319
G1 X96.690 Y61.466 E0.02787
G1 X96.197 Y61.406 E0.01557
G1 X95.564 Y61.224 E0.02068
G1 X95.565 Y59.398 E0.05724
G1 X96.199 Y59.217 E0.02068
G1 X96.693 Y59.158 E0.01557
G1 X97.522 Y59.146 E0.02599
G1 X97.981 Y59.139 F10800.000
;WIPE_START
G1 F8640.000
G1 X97.579 Y61.480 E-0.53898
G1 X96.690 Y61.466 E-0.20527
G1 X96.623 Y61.457 E-0.01575
;WIPE_END
G1 E-0.04000 F2100.000
G1 Z0.600 F10800.000
G1 X92.990 Y68.136
G1 Z0.200
G1 E0.80000 F2100.000
G1 F1200.000
G1 X92.569 Y65.787 E0.07485
G1 X93.215 Y65.619 E0.02094
G1 X93.396 Y65.481 E0.00713
G1 X93.494 Y65.302 E0.00642
G1 X93.526 Y65.066 E0.00747
G1 X93.507 Y64.885 E0.00570
G1 X93.466 Y64.733 E0.00494
G1 X93.385 Y64.600 E0.00487
G1 X93.287 Y64.488 E0.00467
G1 X93.077 Y64.375 E0.00747
G1 X92.830 Y64.285 E0.00823
G1 X92.562 Y64.248 E0.00848
G1 X91.896 Y64.247 E0.02088
G1 X91.591 Y64.284 E0.00966
G1 X91.307 Y64.378 E0.00939
G1 X91.064 Y64.499 E0.00850
G1 X90.954 Y64.618 E0.00506
G1 X90.874 Y64.740 E0.00459
G1 X90.828 Y64.901 E0.00525
G1 X90.806 Y65.091 E0.00600
G1 X90.816 Y65.216 E0.00393
G1 X90.838 Y65.319 E0.00330
G1 X90.945 Y65.509 E0.00684
G1 X91.193 Y65.672 E0.00932
G1 X91.357 Y65.727 E0.00541
G1 X91.947 Y65.861 E0.01899
G1 X91.550 Y68.183 E0.07387
G1 X90.644 Y67.911 E0.02965
G1 X90.170 Y67.705 E0.01620
G1 X89.750 Y67.400 E0.01626
G1 X89.358 Y67.026 E0.01702
G1 X89.079 Y66.544 E0.01744
G1 X88.877 Y66.053 E0.01666
G1 X88.785 Y65.532 E0.01659
G1 X88.753 Y65.006 E0.01652
G1 X88.811 Y64.386 E0.01953
G1 X88.961 Y63.776 E0.01968
G1 X89.267 Y63.227 E0.01972
G1 X89.673 Y62.711 E0.02057
G1 X90.246 Y62.324 E0.02168
G1 X90.843 Y62.042 E0.02072
G1 X91.489 Y61.911 E0.02067
G1 X92.142 Y61.865 E0.02052
G1 X92.798 Y61.911 E0.02063
G1 X93.448 Y62.044 E0.02079
G1 X94.048 Y62.330 E0.02084
G1 X94.622 Y62.722 E0.02180
G1 X95.029 Y63.244 E0.02073
G1 X95.333 Y63.800 E0.01987
G1 X95.481 Y64.415 E0.01984
G1 X95.537 Y65.038 E0.01962
G1 X95.510 Y65.529 E0.01541
G1 X95.429 Y66.017 E0.01551
G1 X95.253 Y66.482 E0.01559
G1 X95.008 Y66.942 E0.01633
G1 X94.663 Y67.303 E0.01568
G1 X94.290 Y67.603 E0.01501
G1 X93.864 Y67.817 E0.01495
G1 X93.047 Y68.116 E0.02727
G1 X92.603 Y68.235 F10800.000
;WIPE_START
G1 F8640.000
G1 X92.569 Y65.787 E-0.54904
G1 X93.215 Y65.619 E-0.15424
G1 X93.396 Y65.481 E-0.05249
G1 X93.405 Y65.465 E-0.00423
;WIPE_END
G1 E-0.04000 F2100.000
G1 Z0.600 F10800.000
G1 X88.888 Y59.140
G1 Z0.200
G1 E0.80000 F2100.000
G1 F1200.000
G1 X94.066 Y59.156 E0.16235
G1 X94.568 Y59.215 E0.01584
G1 X95.212 Y59.397 E0.02099
G1 X95.210 Y61.224 E0.05730
G1 X94.566 Y61.405 E0.02099
G1 X94.062 Y61.463 E0.01590
G1 X88.886 Y61.470 E0.16229
G1 X88.888 Y59.200 E0.07117
G1 X88.739 Y58.769 F10800.000
G1 X88.889 Y58.413
G1 F1200.000
G1 X88.891 Y56.084 E0.07304
G1 X93.736 Y56.096 E0.15192
G1 X94.241 Y56.125 E0.01584
G1 X94.729 Y56.183 E0.01543
G1 X95.194 Y56.194 E0.01459
G1 X95.678 Y56.127 E0.01531
G1 X96.184 Y56.097 E0.01590
G1 X97.585 Y56.091 E0.04393
G1 X97.583 Y58.421 E0.07307
G1 X88.949 Y58.413 E0.27071
G1 X88.490 Y58.448 F10800.000
;WIPE_START
G1 F8640.000
G1 X88.891 Y56.084 E-0.53809
G1 X89.852 Y56.086 E-0.22191
;WIPE_END
G1 E-0.04000 F2100.000
G1 Z0.600 F10800.000
G1 X88.901 Y45.618
G1 Z0.200
G1 E0.80000 F2100.000
G1 F1200.000
G1 X90.272 Y45.638 E0.04298
G1 X91.213 Y45.718 E0.02960
G1 X92.154 Y45.643 E0.02962
G1 X92.645 Y45.643 E0.01537
G1 X93.117 Y45.673 E0.01483
G1 X94.536 Y45.629 E0.04452
G1 X95.427 Y45.627 E0.02795
G1 X95.413 Y46.518 E0.02794
G1 X95.354 Y47.013 E0.01562
