; generated by PrusaSlicer 2.3.1+x64 on 2021-08-30 at 12:22:34 UTC

; 

; external perimeters extrusion width = 0.45mm
; perimeters extrusion width = 0.45mm
; infill extrusion width = 0.45mm
; solid infill extrusion width = 0.45mm
; top infill extrusion width = 0.40mm
; support material extrusion width = 0.35mm
; first layer extrusion width = 0.42mm

M73 P0 R313
M73 Q0 S317
M201 X1000 Y1000 Z200 E5000 ; sets maximum accelerations, mm/sec^2
M203 X200 Y200 Z12 E120 ; sets maximum feedrates, mm/sec
M204 P1250 R1250 T1250 ; sets acceleration (P, T) and retract acceleration (R), mm/sec^2
M205 X8.00 Y8.00 Z0.40 E4.50 ; sets the jerk limits, mm/sec
M205 S0 T0 ; sets the minimum extruding and travel feed rate, mm/sec
M107
;TYPE:Custom
M862.3 P "MK3S" ; printer model check
M862.1 P0.4 ; nozzle diameter check
M115 U3.10.0 ; tell printer latest fw version
G90 ; use absolute coordinates
M83 ; extruder relative mode
M104 S215 ; set extruder temp
M140 S60 ; set bed temp
M190 S60 ; wait for bed temp
M109 S215 ; wait for extruder temp
G28 W ; home all without mesh bed level
G80 ; mesh bed leveling
G1 Y-3.0 F1000.0 ; go outside print area
G92 E0.0
G1 X60.0 E9.0 F1000.0 ; intro line
M73 P0 R312
G1 X100.0 E12.5 F1000.0 ; intro line
G92 E0.0
M221 S95

; Don't change E values below. Excessive value can damage the printer.

M907 E538 ; set extruder motor current
G21 ; set units to millimeters
G90 ; use absolute coordinates
M83 ; use relative distances for extrusion
M900 K0.05 ; Filament gcode LA 1.5
M900 K30 ; Filament gcode LA 1.0
;LAYER_CHANGE
;Z:0.2
;HEIGHT:0.2
;BEFORE_LAYER_CHANGE
G92 E0.0
;0.2


G1 E-0.80000 F2100.000
G1 Z0.400 F10800.000
;AFTER_LAYER_CHANGE
;0.2
G1 X43.120 Y44.914
G1 Z0.200
G1 E0.80000 F2100.000
M204 S1000
;TYPE:Skirt
;WIDTH:0.42
G1 F1200.000
G1 X43.970 Y44.217 E0.03445
G1 X44.715 Y43.875 E0.02570
G1 X45.851 Y43.707 E0.03602
G1 X120.299 Y44.103 E2.33428
G1 X121.294 Y44.256 E0.03158
G1 X121.867 Y44.472 E0.01917
G1 X122.769 Y45.126 E0.03495
G1 X123.220 Y45.659 E0.02190
G1 X123.620 Y46.349 E0.02499
G1 X123.827 Y47.008 E0.02166
G1 X127.528 Y67.159 E0.64239
G1 X127.530 Y144.915 E2.43799
G1 X127.466 Y145.432 E0.01633
G1 X123.165 Y163.272 E0.57539
G1 X122.946 Y163.851 E0.01941
G1 X122.464 Y164.613 E0.02825
G1 X121.474 Y165.463 E0.04093
G1 X120.744 Y165.793 E0.02511
G1 X119.623 Y165.959 E0.03554
G1 X45.183 Y165.564 E2.33405
G1 X44.179 Y165.412 E0.03182
G1 X43.603 Y165.197 E0.01929
G1 X42.698 Y164.540 E0.03507
G1 X42.246 Y164.007 E0.02190
G1 X41.826 Y163.272 E0.02654
G1 X29.448 Y134.101 E0.99358
G1 X29.286 Y133.523 E0.01882
G1 X29.262 Y76.248 E1.79581
G1 X29.458 Y75.373 E0.02813
G1 X42.510 Y45.835 E1.01251
G1 X43.087 Y44.964 E0.03278
; printing object bot.stl id:0 copy 0
;WIPE_START
G1 F8640.000
G1 X43.970 Y44.217 E-0.26700
G1 X44.715 Y43.875 E-0.18925
G1 X45.851 Y43.707 E-0.26525
G1 X46.018 Y43.708 E-0.03850
;WIPE_END
G1 E-0.04000 F2100.000
G1 Z0.600 F10800.000
G1 X31.638 Y76.321
G1 Z0.200
G1 E0.80000 F2100.000
;TYPE:Support material
G1 F1200.000
G1 X31.638 Y84.727 E0.26358
G1 X32.392 Y84.727 E0.02365
G1 X32.392 Y76.490 E0.25826
G1 X33.146 Y76.490 E0.02365
G1 X33.146 Y84.727 E0.25826
G1 X33.900 Y84.727 E0.02365
G1 X33.900 Y76.490 E0.25826
G1 X34.654 Y76.490 E0.02365
G1 X34.654 Y84.727 E0.25826
G1 X35.409 Y84.727 E0.02365
G1 X35.409 Y76.490 E0.25826
G1 X36.163 Y76.490 E0.02365
G1 X36.163 Y84.727 E0.25826
G1 X36.917 Y84.727 E0.02365
G1 X36.917 Y74.183 E0.33060
G1 X37.671 Y74.183 E0.02365
G1 X37.671 Y84.727 E0.33060
G1 X38.425 Y84.727 E0.02365
G1 X38.425 Y74.183 E0.33060
G1 X39.179 Y74.183 E0.02365
G1 X39.179 Y84.727 E0.33060
G1 X39.934 Y84.727 E0.02365
G1 X39.934 Y74.183 E0.33060
G1 X40.688 Y74.183 E0.02365
G1 X40.688 Y84.727 E0.33060
G1 X41.442 Y84.727 E0.02365
G1 X41.442 Y74.183 E0.33060
G1 X42.196 Y74.183 E0.02365
G1 X42.196 Y84.727 E0.33060
G1 X42.950 Y84.727 E0.02365
G1 X42.950 Y74.183 E0.33060
G1 X43.704 Y74.183 E0.02365
G1 X43.704 Y84.897 E0.33592
;WIPE_START
G1 F8640.000
G1 X43.704 Y81.606 E-0.76000
;WIPE_END
G1 E-0.04000 F2100.000
G1 Z0.600 F10800.000
G1 X31.638 Y122.462
G1 Z0.200
G1 E0.80000 F2100.000
G1 F1200.000
G1 X31.638 Y133.176 E0.33592
G1 X32.392 Y133.176 E0.02365
G1 X32.392 Y122.632 E0.33060
G1 X33.146 Y122.632 E0.02365
G1 X33.146 Y133.176 E0.33060
G1 X33.900 Y133.176 E0.02365
G1 X33.900 Y122.632 E0.33060
G1 X34.654 Y122.632 E0.02365
G1 X34.654 Y133.176 E0.33060
G1 X35.409 Y133.176 E0.02365
G1 X35.409 Y122.632 E0.33060
G1 X36.163 Y122.632 E0.02365
G1 X36.163 Y133.176 E0.33060
G1 X36.917 Y133.176 E0.02365
G1 X36.917 Y122.632 E0.33060
G1 X37.671 Y122.632 E0.02365
G1 X37.671 Y133.176 E0.33060
G1 X38.425 Y133.176 E0.02365
G1 X38.425 Y122.632 E0.33060
M73 Q0 S316
G1 X39.179 Y122.632 E0.02365
G1 X39.179 Y133.176 E0.33060
G1 X39.934 Y133.176 E0.02365
G1 X39.934 Y122.632 E0.33060
G1 X40.688 Y122.632 E0.02365
G1 X40.688 Y133.176 E0.33060
G1 X41.442 Y133.176 E0.02365
G1 X41.442 Y122.632 E0.33060
G1 X42.196 Y122.632 E0.02365
G1 X42.196 Y133.176 E0.33060
G1 X42.950 Y133.176 E0.02365
G1 X42.950 Y122.632 E0.33060
G1 X43.704 Y122.632 E0.02365
G1 X43.704 Y133.346 E0.33592
;WIPE_START
G1 F8640.000
G1 X43.704 Y130.054 E-0.76000
;WIPE_END
G1 E-0.04000 F2100.000
G1 Z0.600 F10800.000
G1 X121.383 Y144.881
G1 Z0.200
G1 E0.80000 F2100.000
G1 F1200.000
G1 X121.383 Y124.939 E0.62527
G1 X122.137 Y124.939 E0.02365
G1 X122.137 Y144.711 E0.61995
G1 X122.891 Y144.711 E0.02365
G1 X122.891 Y124.939 E0.61995
G1 X123.645 Y124.939 E0.02365
G1 X123.645 Y144.711 E0.61995
G1 X124.399 Y144.711 E0.02365
G1 X124.399 Y124.939 E0.61995
G1 X125.154 Y124.939 E0.02365
G1 X125.154 Y144.881 E0.62527
;WIPE_START
G1 F8640.000
G1 X125.154 Y141.590 E-0.76000
;WIPE_END
G1 E-0.04000 F2100.000
G1 Z0.600 F10800.000
G1 X125.154 Y84.897
G1 Z0.200
G1 E0.80000 F2100.000
G1 F1200.000
G1 X125.154 Y67.262 E0.55293
G1 X124.399 Y67.262 E0.02365
G1 X124.399 Y84.727 E0.54761
G1 X123.645 Y84.727 E0.02365
G1 X123.645 Y67.262 E0.54761
G1 X122.891 Y67.262 E0.02365
G1 X122.891 Y84.727 E0.54761
G1 X122.137 Y84.727 E0.02365
G1 X122.137 Y67.262 E0.54761
G1 X121.383 Y67.262 E0.02365
G1 X121.383 Y84.897 E0.55293
;WIPE_START
G1 F8640.000
G1 X121.383 Y81.606 E-0.76000
;WIPE_END
G1 E-0.04000 F2100.000
G1 Z0.600 F10800.000
G1 X120.041 Y47.973
G1 Z0.200
G1 E0.80000 F2100.000
;TYPE:Perimeter
G1 F1200.000
G1 X119.435 Y162.086 E3.57799
M73 P0 R311
G1 X45.425 Y161.693 E2.32057
G1 X46.031 Y47.580 E3.57799
G1 X119.981 Y47.973 E2.31869
G1 X120.326 Y47.647 F10800.000
;TYPE:External perimeter
G1 F1200.000
G1 X120.419 Y47.805 E0.00575
G1 X119.811 Y162.258 E3.58864
G1 X119.764 Y162.356 E0.00340
G1 X119.717 Y162.415 E0.00238
G1 X119.570 Y162.464 E0.00484
G1 X45.286 Y162.070 E2.32916
G1 X45.140 Y162.019 E0.00484
G1 X45.047 Y161.861 E0.00575
G1 X45.655 Y47.408 E3.58864
G1 X45.702 Y47.311 E0.00340
G1 X45.750 Y47.251 E0.00238
G1 X45.896 Y47.202 E0.00484
G1 X120.180 Y47.597 E2.32916
G1 X120.270 Y47.628 E0.00296
G1 X120.295 Y47.828 F10800.000
;WIPE_START
G1 F8640.000
G1 X120.419 Y47.805 E-0.05365
G1 X120.403 Y50.864 E-0.70635
;WIPE_END
G1 E-0.04000 F2100.000
G1 Z0.600 F10800.000
G1 X119.160 Y48.082
G1 Z0.200
G1 E0.80000 F2100.000
;TYPE:Solid infill
;WIDTH:0.420498
G1 F1200.000
G1 X119.755 Y48.676 E0.02640
G1 X119.752 Y49.207 E0.01668
G1 X118.794 Y48.249 E0.04254
G1 X118.257 Y48.246 E0.01685
G1 X119.749 Y49.738 E0.06625
G1 X119.746 Y50.270 E0.01668
G1 X117.720 Y48.244 E0.08996
G1 X117.184 Y48.241 E0.01685
G1 X119.744 Y50.801 E0.11367
G1 X119.741 Y51.332 E0.01668
G1 X116.647 Y48.238 E0.13738
G1 X116.110 Y48.235 E0.01685
G1 X119.738 Y51.863 E0.16109
G1 X119.735 Y52.394 E0.01668
G1 X115.573 Y48.232 E0.18480
G1 X115.036 Y48.229 E0.01685
G1 X119.732 Y52.925 E0.20851
G1 X119.729 Y53.457 E0.01668
G1 X114.499 Y48.226 E0.23222
G1 X113.963 Y48.224 E0.01685
G1 X119.727 Y53.988 E0.25593
M73 Q0 S315
G1 X119.724 Y54.519 E0.01668
G1 X113.426 Y48.221 E0.27964
G1 X112.889 Y48.218 E0.01685
G1 X119.721 Y55.050 E0.30335
G1 X119.718 Y55.581 E0.01668
G1 X112.352 Y48.215 E0.32706
G1 X111.815 Y48.212 E0.01685
G1 X119.715 Y56.112 E0.35077
G1 X119.712 Y56.643 E0.01668
G1 X111.278 Y48.209 E0.37448
G1 X110.742 Y48.207 E0.01685
G1 X119.710 Y57.175 E0.39819
G1 X119.707 Y57.706 E0.01668
G1 X110.205 Y48.204 E0.42190
G1 X109.668 Y48.201 E0.01685
G1 X119.704 Y58.237 E0.44561
G1 X119.701 Y58.768 E0.01668
G1 X109.131 Y48.198 E0.46932
G1 X108.594 Y48.195 E0.01685
G1 X119.698 Y59.299 E0.49303
G1 X119.696 Y59.830 E0.01668
G1 X108.057 Y48.192 E0.51674
G1 X107.521 Y48.189 E0.01685
G1 X119.693 Y60.362 E0.54045
G1 X119.690 Y60.893 E0.01668
G1 X106.984 Y48.187 E0.56416
G1 X106.447 Y48.184 E0.01685
G1 X119.687 Y61.424 E0.58787
G1 X119.684 Y61.955 E0.01668
G1 X105.910 Y48.181 E0.61158
G1 X105.373 Y48.178 E0.01685
G1 X119.681 Y62.486 E0.63529
G1 X119.679 Y63.017 E0.01668
G1 X104.836 Y48.175 E0.65900
G1 X104.300 Y48.172 E0.01685
G1 X119.676 Y63.548 E0.68271
G1 X119.673 Y64.080 E0.01668
G1 X103.763 Y48.169 E0.70642
G1 X103.226 Y48.167 E0.01685
G1 X119.670 Y64.611 E0.73013
G1 X119.667 Y65.142 E0.01668
G1 X102.689 Y48.164 E0.75384
G1 X102.152 Y48.161 E0.01685
G1 X119.665 Y65.673 E0.77755
G1 X119.662 Y66.204 E0.01668
G1 X101.616 Y48.158 E0.80126
G1 X101.079 Y48.155 E0.01685
G1 X119.659 Y66.735 E0.82497
M73 P0 R310
G1 X119.656 Y67.267 E0.01668
G1 X100.542 Y48.152 E0.84868
G1 X100.005 Y48.150 E0.01685
G1 X119.653 Y67.798 E0.87239
G1 X119.650 Y68.329 E0.01668
G1 X99.468 Y48.147 E0.89610
G1 X98.931 Y48.144 E0.01685
G1 X119.648 Y68.860 E0.91981
G1 X119.645 Y69.391 E0.01668
G1 X98.395 Y48.141 E0.94352
G1 X97.858 Y48.138 E0.01685
G1 X119.642 Y69.922 E0.96723
G1 X119.639 Y70.453 E0.01668
G1 X97.321 Y48.135 E0.99094
G1 X96.784 Y48.132 E0.01685
G1 X119.636 Y70.985 E1.01465
G1 X119.633 Y71.516 E0.01668
G1 X96.247 Y48.130 E1.03836
G1 X95.710 Y48.127 E0.01685
G1 X119.631 Y72.047 E1.06207
G1 X119.628 Y72.578 E0.01668
G1 X95.174 Y48.124 E1.08578
G1 X94.637 Y48.121 E0.01685
G1 X119.625 Y73.109 E1.10949
G1 X119.622 Y73.640 E0.01668
G1 X94.100 Y48.118 E1.13320
G1 X93.563 Y48.115 E0.01685
G1 X119.619 Y74.172 E1.15691
G1 X119.617 Y74.703 E0.01668
G1 X93.026 Y48.112 E1.18062
G1 X92.489 Y48.110 E0.01685
G1 X119.614 Y75.234 E1.20433
G1 X119.611 Y75.765 E0.01668
G1 X91.953 Y48.107 E1.22804
G1 X91.416 Y48.104 E0.01685
G1 X119.608 Y76.296 E1.25175
G1 X119.605 Y76.827 E0.01668
G1 X90.879 Y48.101 E1.27546
G1 X90.342 Y48.098 E0.01685
G1 X119.602 Y77.358 E1.29917
G1 X119.600 Y77.890 E0.01668
G1 X89.805 Y48.095 E1.32288
G1 X89.268 Y48.092 E0.01685
G1 X119.597 Y78.421 E1.34659
M73 Q0 S314
G1 X119.594 Y78.952 E0.01668
G1 X88.732 Y48.090 E1.37030
G1 X88.195 Y48.087 E0.01685
G1 X119.591 Y79.483 E1.39401
G1 X119.588 Y80.014 E0.01668
G1 X87.658 Y48.084 E1.41772
G1 X87.121 Y48.081 E0.01685
G1 X119.586 Y80.545 E1.44143
G1 X119.583 Y81.077 E0.01668
G1 X86.584 Y48.078 E1.46514
G1 X86.048 Y48.075 E0.01685
G1 X119.580 Y81.608 E1.48885
G1 X119.577 Y82.139 E0.01668
G1 X85.511 Y48.073 E1.51256
G1 X84.974 Y48.070 E0.01685
G1 X119.574 Y82.670 E1.53627
G1 X119.571 Y83.201 E0.01668
G1 X84.437 Y48.067 E1.55998
M73 P0 R309
G1 X83.900 Y48.064 E0.01685
G1 X119.569 Y83.732 E1.58369
M73 P1 R309
G1 X119.566 Y84.264 E0.01668
G1 X83.363 Y48.061 E1.60740
M73 Q1 S314
G1 X82.827 Y48.058 E0.01685
G1 X119.563 Y84.795 E1.63111
G1 X119.560 Y85.326 E0.01668
G1 X82.290 Y48.055 E1.65482
G1 X81.753 Y48.053 E0.01685
G1 X119.557 Y85.857 E1.67853
G1 X119.554 Y86.388 E0.01668
G1 X81.216 Y48.050 E1.70224
G1 X80.679 Y48.047 E0.01685
G1 X119.552 Y86.919 E1.72595
G1 X119.549 Y87.450 E0.01668
G1 X80.142 Y48.044 E1.74966
G1 X79.606 Y48.041 E0.01685
G1 X119.546 Y87.982 E1.77337
G1 X119.543 Y88.513 E0.01668
G1 X79.069 Y48.038 E1.79708
G1 X78.532 Y48.035 E0.01685
G1 X119.540 Y89.044 E1.82079
G1 X119.538 Y89.575 E0.01668
G1 X77.995 Y48.033 E1.84450
G1 X77.458 Y48.030 E0.01685
G1 X119.535 Y90.106 E1.86821
G1 X119.532 Y90.637 E0.01668
G1 X76.921 Y48.027 E1.89192
M73 Q1 S313
G1 X76.385 Y48.024 E0.01685
G1 X119.529 Y91.169 E1.91563
G1 X119.526 Y91.700 E0.01668
G1 X75.848 Y48.021 E1.93934
G1 X75.311 Y48.018 E0.01685
G1 X119.523 Y92.231 E1.96305
G1 X119.521 Y92.762 E0.01668
G1 X74.774 Y48.015 E1.98676
G1 X74.237 Y48.013 E0.01685
G1 X119.518 Y93.293 E2.01047
G1 X119.515 Y93.824 E0.01668
G1 X73.701 Y48.010 E2.03418
G1 X73.164 Y48.007 E0.01685
G1 X119.512 Y94.355 E2.05789
M73 P1 R308
G1 X119.509 Y94.887 E0.01668
G1 X72.627 Y48.004 E2.08160
G1 X72.090 Y48.001 E0.01685
G1 X119.507 Y95.418 E2.10531
G1 X119.504 Y95.949 E0.01668
G1 X71.553 Y47.998 E2.12902
G1 X71.016 Y47.996 E0.01685
G1 X119.501 Y96.480 E2.15273
G1 X119.498 Y97.011 E0.01668
G1 X70.480 Y47.993 E2.17644
G1 X69.943 Y47.990 E0.01685
G1 X119.495 Y97.542 E2.20015
G1 X119.492 Y98.074 E0.01668
G1 X69.406 Y47.987 E2.22386
G1 X68.869 Y47.984 E0.01685
G1 X119.490 Y98.605 E2.24757
G1 X119.487 Y99.136 E0.01668
G1 X68.332 Y47.981 E2.27128
G1 X67.795 Y47.978 E0.01685
G1 X119.484 Y99.667 E2.29499
G1 X119.481 Y100.198 E0.01668
G1 X67.259 Y47.976 E2.31870
M73 Q1 S312
G1 X66.722 Y47.973 E0.01685
G1 X119.478 Y100.729 E2.34241
G1 X119.476 Y101.260 E0.01668
G1 X66.185 Y47.970 E2.36612
G1 X65.648 Y47.967 E0.01685
G1 X119.473 Y101.792 E2.38983
G1 X119.470 Y102.323 E0.01668
G1 X65.111 Y47.964 E2.41354
G1 X64.574 Y47.961 E0.01685
G1 X119.467 Y102.854 E2.43725
M73 P1 R307
G1 X119.464 Y103.385 E0.01668
G1 X64.038 Y47.958 E2.46096
G1 X63.501 Y47.956 E0.01685
G1 X119.461 Y103.916 E2.48467
G1 X119.459 Y104.447 E0.01668
G1 X62.964 Y47.953 E2.50838
G1 X62.427 Y47.950 E0.01685
G1 X119.456 Y104.979 E2.53209
G1 X119.453 Y105.510 E0.01668
G1 X61.890 Y47.947 E2.55580
G1 X61.353 Y47.944 E0.01685
G1 X119.450 Y106.041 E2.57951
G1 X119.447 Y106.572 E0.01668
G1 X60.817 Y47.941 E2.60322
G1 X60.280 Y47.939 E0.01685
G1 X119.444 Y107.103 E2.62693
G1 X119.442 Y107.634 E0.01668
G1 X59.743 Y47.936 E2.65064
G1 X59.206 Y47.933 E0.01685
G1 X119.439 Y108.165 E2.67435
M73 Q1 S311
G1 X119.436 Y108.697 E0.01668
G1 X58.669 Y47.930 E2.69806
G1 X58.133 Y47.927 E0.01685
G1 X119.433 Y109.228 E2.72177
G1 X119.430 Y109.759 E0.01668
G1 X57.596 Y47.924 E2.74548
G1 X57.059 Y47.921 E0.01685
G1 X119.428 Y110.290 E2.76919
M73 P1 R306
G1 X119.425 Y110.821 E0.01668
G1 X56.522 Y47.919 E2.79290
G1 X55.985 Y47.916 E0.01685
G1 X119.422 Y111.352 E2.81661
G1 X119.419 Y111.884 E0.01668
G1 X55.448 Y47.913 E2.84032
M73 P2 R306
G1 X54.912 Y47.910 E0.01685
G1 X119.416 Y112.415 E2.86403
M73 Q2 S311
G1 X119.413 Y112.946 E0.01668
G1 X54.375 Y47.907 E2.88774
G1 X53.838 Y47.904 E0.01685
G1 X119.411 Y113.477 E2.91145
G1 X119.408 Y114.008 E0.01668
G1 X53.301 Y47.901 E2.93516
G1 X52.764 Y47.899 E0.01685
G1 X119.405 Y114.539 E2.95887
G1 X119.402 Y115.070 E0.01668
G1 X52.227 Y47.896 E2.98258
M73 Q2 S310
G1 X51.691 Y47.893 E0.01685
G1 X119.399 Y115.602 E3.00629
G1 X119.397 Y116.133 E0.01668
G1 X51.154 Y47.890 E3.03000
G1 X50.617 Y47.887 E0.01685
G1 X119.394 Y116.664 E3.05371
G1 X119.391 Y117.195 E0.01668
G1 X50.080 Y47.884 E3.07742
M73 P2 R305
G1 X49.543 Y47.881 E0.01685
G1 X119.388 Y117.726 E3.10113
G1 X119.385 Y118.257 E0.01668
G1 X49.006 Y47.879 E3.12484
G1 X48.470 Y47.876 E0.01685
G1 X119.382 Y118.789 E3.14855
G1 X119.380 Y119.320 E0.01668
G1 X47.933 Y47.873 E3.17226
G1 X47.396 Y47.870 E0.01685
G1 X119.377 Y119.851 E3.19597
G1 X119.374 Y120.382 E0.01668
G1 X46.859 Y47.867 E3.21968
G1 X46.322 Y47.864 E0.01685
G1 X119.371 Y120.913 E3.24339
G1 X119.368 Y121.444 E0.01668
G1 X46.310 Y48.386 E3.24383
M73 Q2 S309
G1 X46.307 Y48.917 E0.01668
G1 X119.365 Y121.975 E3.24383
G1 X119.363 Y122.507 E0.01668
G1 X46.304 Y49.448 E3.24383
G1 X46.301 Y49.979 E0.01668
G1 X119.360 Y123.038 E3.24383
G1 X119.357 Y123.569 E0.01668
G1 X46.298 Y50.510 E3.24383
M73 P2 R304
G1 X46.296 Y51.041 E0.01668
G1 X119.354 Y124.100 E3.24383
G1 X119.351 Y124.631 E0.01668
G1 X46.293 Y51.573 E3.24383
G1 X46.290 Y52.104 E0.01668
G1 X119.349 Y125.162 E3.24383
G1 X119.346 Y125.694 E0.01668
G1 X46.287 Y52.635 E3.24383
G1 X46.284 Y53.166 E0.01668
G1 X119.343 Y126.225 E3.24383
G1 X119.340 Y126.756 E0.01668
G1 X46.281 Y53.697 E3.24383
G1 X46.279 Y54.228 E0.01668
G1 X119.337 Y127.287 E3.24383
M73 Q2 S308
G1 X119.334 Y127.818 E0.01668
G1 X46.276 Y54.760 E3.24383
G1 X46.273 Y55.291 E0.01668
