; generated by PrusaSlicer 2.3.1+x64 on 2021-08-26 at 17:05:34 UTC

; 

; external perimeters extrusion width = 0.45mm
; perimeters extrusion width = 0.45mm
; infill extrusion width = 0.45mm
; solid infill extrusion width = 0.45mm
; top infill extrusion width = 0.40mm
; support material extrusion width = 0.35mm
; first layer extrusion width = 0.42mm

M73 P0 R412
M73 Q0 S419
M201 X1000 Y1000 Z200 E5000 ; sets maximum accelerations, mm/sec^2
M203 X200 Y200 Z12 E120 ; sets maximum feedrates, mm/sec
M204 P1250 R1250 T1250 ; sets acceleration (P, T) and retract acceleration (R), mm/sec^2
M205 X8.00 Y8.00 Z0.40 E4.50 ; sets the jerk limits, mm/sec
M205 S0 T0 ; sets the minimum extruding and travel feed rate, mm/sec
M107
;TYPE:Custom
M862.3 P "MK3S" ; printer model check
M862.1 P0.4 ; nozzle diameter check
M115 U3.10.0 ; tell printer latest fw version
G90 ; use absolute coordinates
M83 ; extruder relative mode
M104 S215 ; set extruder temp
M140 S60 ; set bed temp
M190 S60 ; wait for bed temp
M109 S215 ; wait for extruder temp
G28 W ; home all without mesh bed level
G80 ; mesh bed leveling
G1 Y-3.0 F1000.0 ; go outside print area
G92 E0.0
G1 X60.0 E9.0 F1000.0 ; intro line
G1 X100.0 E12.5 F1000.0 ; intro line
G92 E0.0
M221 S95

; Don't change E values below. Excessive value can damage the printer.

M907 E538 ; set extruder motor current
G21 ; set units to millimeters
G90 ; use absolute coordinates
M83 ; use relative distances for extrusion
M900 K0.05 ; Filament gcode LA 1.5
M900 K30 ; Filament gcode LA 1.0
;LAYER_CHANGE
;Z:0.2
;HEIGHT:0.2
;BEFORE_LAYER_CHANGE
G92 E0.0
;0.2


G1 E-0.80000 F2100.000
G1 Z0.400 F10800.000
;AFTER_LAYER_CHANGE
;0.2
G1 X54.693 Y43.162
G1 Z0.200
G1 E0.80000 F2100.000
M204 S1000
;TYPE:Skirt
;WIDTH:0.42
G1 F1200.000
G1 X55.046 Y42.285 E0.02964
G1 X55.359 Y41.808 E0.01787
G1 X55.957 Y41.207 E0.02659
G1 X56.412 Y40.895 E0.01728
G1 X57.157 Y40.576 E0.02544
G1 X58.182 Y40.392 E0.03263
G1 X191.809 Y40.392 E4.18979
G1 X192.891 Y40.594 E0.03451
G1 X193.655 Y40.932 E0.02619
G1 X194.154 Y41.310 E0.01965
G1 X194.672 Y41.846 E0.02337
G1 X194.969 Y42.315 E0.01740
G1 X195.307 Y43.160 E0.02853
G1 X195.433 Y43.976 E0.02589
G1 X195.433 Y157.157 E3.54870
M73 Q0 S418
G1 X195.306 Y157.992 E0.02649
G1 X194.952 Y158.869 E0.02964
G1 X194.641 Y159.342 E0.01775
G1 X194.043 Y159.943 E0.02659
G1 X193.524 Y160.287 E0.01953
G1 X192.588 Y160.652 E0.03150
G1 X151.184 Y170.433 E1.33391
G1 X150.633 Y170.496 E0.01740
G1 X135.763 Y170.323 E0.46628
G1 X99.084 Y168.003 E1.15235
G1 X57.514 Y160.674 E1.32347
G1 X56.276 Y160.178 E0.04183
G1 X55.382 Y159.368 E0.03783
G1 X55.070 Y158.913 E0.01728
G1 X54.752 Y158.171 E0.02532
G1 X54.567 Y157.147 E0.03263
G1 X54.567 Y44.008 E3.54739
M73 P0 R411
G1 X54.684 Y43.221 E0.02496
; printing object bot.stl id:0 copy 0
;WIPE_START
G1 F8640.000
G1 X55.046 Y42.285 E-0.23180
G1 X55.359 Y41.808 E-0.13161
G1 X55.957 Y41.207 E-0.19584
G1 X56.412 Y40.895 E-0.12724
G1 X56.704 Y40.770 E-0.07351
;WIPE_END
G1 E-0.04000 F2100.000
G1 Z0.600 F10800.000
G1 X150.641 Y168.119
G1 Z0.200
G1 E0.80000 F2100.000
;TYPE:Support material
G1 F1200.000
G1 X150.641 Y158.083 E0.31466
G1 X149.887 Y158.083 E0.02365
G1 X149.887 Y167.949 E0.30934
G1 X149.133 Y167.949 E0.02365
G1 X149.133 Y158.083 E0.30934
G1 X148.379 Y158.083 E0.02365
G1 X148.379 Y167.949 E0.30934
G1 X147.625 Y167.949 E0.02365
G1 X147.625 Y158.083 E0.30934
G1 X146.871 Y158.083 E0.02365
G1 X146.871 Y167.949 E0.30934
G1 X146.116 Y167.949 E0.02365
G1 X146.116 Y158.083 E0.30934
G1 X145.362 Y158.083 E0.02365
G1 X145.362 Y167.949 E0.30934
G1 X144.608 Y167.949 E0.02365
G1 X144.608 Y158.083 E0.30934
G1 X143.854 Y158.083 E0.02365
G1 X143.854 Y167.949 E0.30934
G1 X143.100 Y167.949 E0.02365
G1 X143.100 Y158.083 E0.30934
G1 X142.346 Y158.083 E0.02365
G1 X142.346 Y167.949 E0.30934
G1 X141.591 Y167.949 E0.02365
G1 X141.591 Y158.083 E0.30934
G1 X140.837 Y158.083 E0.02365
G1 X140.837 Y167.949 E0.30934
G1 X140.083 Y167.949 E0.02365
G1 X140.083 Y158.083 E0.30934
G1 X139.329 Y158.083 E0.02365
G1 X139.329 Y167.949 E0.30934
G1 X138.575 Y167.949 E0.02365
G1 X138.575 Y158.083 E0.30934
G1 X137.821 Y158.083 E0.02365
G1 X137.821 Y167.949 E0.30934
G1 X137.067 Y167.949 E0.02365
G1 X137.067 Y158.083 E0.30934
G1 X136.312 Y158.083 E0.02365
G1 X136.312 Y167.949 E0.30934
G1 X135.878 Y167.949 E0.01363
G1 X135.878 Y165.642 E0.07234
G1 X135.558 Y165.642 E0.01001
G1 X135.558 Y158.083 E0.23700
G1 X134.804 Y158.083 E0.02365
G1 X134.804 Y165.642 E0.23700
G1 X134.050 Y165.642 E0.02365
G1 X134.050 Y158.083 E0.23700
G1 X133.296 Y158.083 E0.02365
G1 X133.296 Y165.642 E0.23700
G1 X132.542 Y165.642 E0.02365
G1 X132.542 Y158.083 E0.23700
G1 X131.787 Y158.083 E0.02365
G1 X131.787 Y165.642 E0.23700
G1 X131.033 Y165.642 E0.02365
G1 X131.033 Y158.083 E0.23700
G1 X130.279 Y158.083 E0.02365
G1 X130.279 Y165.642 E0.23700
G1 X129.525 Y165.642 E0.02365
G1 X129.525 Y158.083 E0.23700
G1 X128.771 Y158.083 E0.02365
G1 X128.771 Y165.642 E0.23700
G1 X128.017 Y165.642 E0.02365
G1 X128.017 Y158.083 E0.23700
G1 X127.262 Y158.083 E0.02365
G1 X127.262 Y165.642 E0.23700
G1 X126.508 Y165.642 E0.02365
G1 X126.508 Y158.083 E0.23700
G1 X125.754 Y158.083 E0.02365
G1 X125.754 Y165.642 E0.23700
G1 X125.000 Y165.642 E0.02365
G1 X125.000 Y158.083 E0.23700
G1 X124.246 Y158.083 E0.02365
G1 X124.246 Y165.642 E0.23700
G1 X123.492 Y165.642 E0.02365
G1 X123.492 Y158.083 E0.23700
G1 X122.738 Y158.083 E0.02365
G1 X122.738 Y165.642 E0.23700
G1 X121.983 Y165.642 E0.02365
G1 X121.983 Y158.083 E0.23700
G1 X121.229 Y158.083 E0.02365
G1 X121.229 Y165.642 E0.23700
G1 X120.475 Y165.642 E0.02365
G1 X120.475 Y158.083 E0.23700
G1 X119.721 Y158.083 E0.02365
G1 X119.721 Y165.642 E0.23700
G1 X118.967 Y165.642 E0.02365
G1 X118.967 Y158.083 E0.23700
G1 X118.213 Y158.083 E0.02365
G1 X118.213 Y165.642 E0.23700
G1 X117.458 Y165.642 E0.02365
G1 X117.458 Y158.083 E0.23700
G1 X116.704 Y158.083 E0.02365
G1 X116.704 Y165.642 E0.23700
G1 X115.950 Y165.642 E0.02365
G1 X115.950 Y158.083 E0.23700
G1 X115.196 Y158.083 E0.02365
G1 X115.196 Y165.642 E0.23700
G1 X114.442 Y165.642 E0.02365
G1 X114.442 Y158.083 E0.23700
G1 X113.688 Y158.083 E0.02365
G1 X113.688 Y165.642 E0.23700
G1 X112.933 Y165.642 E0.02365
G1 X112.933 Y158.083 E0.23700
G1 X112.179 Y158.083 E0.02365
G1 X112.179 Y165.642 E0.23700
G1 X111.425 Y165.642 E0.02365
G1 X111.425 Y158.083 E0.23700
G1 X110.671 Y158.083 E0.02365
G1 X110.671 Y165.642 E0.23700
G1 X109.917 Y165.642 E0.02365
G1 X109.917 Y158.083 E0.23700
G1 X109.163 Y158.083 E0.02365
G1 X109.163 Y165.642 E0.23700
G1 X108.408 Y165.642 E0.02365
G1 X108.408 Y158.083 E0.23700
G1 X107.654 Y158.083 E0.02365
G1 X107.654 Y165.642 E0.23700
G1 X106.900 Y165.642 E0.02365
G1 X106.900 Y158.083 E0.23700
G1 X106.146 Y158.083 E0.02365
G1 X106.146 Y165.642 E0.23700
G1 X105.392 Y165.642 E0.02365
G1 X105.392 Y158.083 E0.23700
G1 X104.638 Y158.083 E0.02365
G1 X104.638 Y165.642 E0.23700
G1 X103.884 Y165.642 E0.02365
G1 X103.884 Y158.083 E0.23700
G1 X103.129 Y158.083 E0.02365
G1 X103.129 Y165.642 E0.23700
G1 X102.375 Y165.642 E0.02365
G1 X102.375 Y158.083 E0.23700
G1 X101.621 Y158.083 E0.02365
G1 X101.621 Y165.642 E0.23700
G1 X100.867 Y165.642 E0.02365
G1 X100.867 Y158.083 E0.23700
G1 X100.113 Y158.083 E0.02365
G1 X100.113 Y165.642 E0.23700
G1 X99.359 Y165.642 E0.02365
G1 X99.359 Y157.913 E0.24232
;WIPE_START
G1 F8640.000
G1 X99.359 Y161.205 E-0.76000
;WIPE_END
G1 E-0.04000 F2100.000
G1 Z0.600 F10800.000
G1 X58.443 Y156.882
G1 Z0.200
G1 E0.80000 F2100.000
;TYPE:Perimeter
G1 F1200.000
G1 X58.443 Y44.268 E3.53096
G1 X191.557 Y44.268 E4.17372
M73 Q0 S417
G1 X191.557 Y156.882 E3.53096
G1 X58.503 Y156.882 E4.17184
M73 P0 R410
G1 X58.197 Y157.244 F10800.000
;TYPE:External perimeter
G1 F1200.000
G1 X58.081 Y157.128 E0.00512
G1 X58.065 Y157.039 E0.00284
G1 X58.065 Y44.111 E3.54078
G1 X58.081 Y44.022 E0.00284
G1 X58.197 Y43.906 E0.00512
G1 X58.286 Y43.890 E0.00284
G1 X191.715 Y43.890 E4.18356
G1 X191.797 Y43.905 E0.00264
G1 X191.919 Y44.023 E0.00532
G1 X191.935 Y44.111 E0.00279
G1 X191.935 Y157.039 E3.54078
G1 X191.919 Y157.128 E0.00284
G1 X191.803 Y157.244 E0.00512
G1 X191.714 Y157.260 E0.00284
G1 X58.256 Y157.254 E4.18448
G1 X58.197 Y157.080 F10800.000
;WIPE_START
G1 F8640.000
G1 X58.081 Y157.128 E-0.04972
G1 X58.065 Y157.039 E-0.02088
G1 X58.065 Y154.053 E-0.68939
;WIPE_END
G1 E-0.04000 F2100.000
G1 Z0.600 F10800.000
G1 X190.682 Y44.381
G1 Z0.200
G1 E0.80000 F2100.000
;TYPE:Solid infill
;WIDTH:0.420073
G1 F1200.000
G1 X191.275 Y44.973 E0.02629
G1 X191.275 Y45.507 E0.01673
G1 X190.318 Y44.550 E0.04242
G1 X189.785 Y44.550 E0.01673
G1 X191.275 Y46.040 E0.06607
G1 X191.275 Y46.574 E0.01673
G1 X189.251 Y44.550 E0.08973
G1 X188.718 Y44.550 E0.01673
G1 X191.275 Y47.107 E0.11338
G1 X191.275 Y47.640 E0.01673
G1 X188.185 Y44.550 E0.13704
G1 X187.651 Y44.550 E0.01673
G1 X191.275 Y48.174 E0.16069
G1 X191.275 Y48.707 E0.01673
G1 X187.118 Y44.550 E0.18435
G1 X186.585 Y44.550 E0.01673
G1 X191.275 Y49.240 E0.20801
G1 X191.275 Y49.774 E0.01673
G1 X186.051 Y44.550 E0.23166
G1 X185.518 Y44.550 E0.01673
G1 X191.275 Y50.307 E0.25532
G1 X191.275 Y50.841 E0.01673
G1 X184.984 Y44.550 E0.27897
G1 X184.451 Y44.550 E0.01673
G1 X191.275 Y51.374 E0.30263
G1 X191.275 Y51.907 E0.01673
G1 X183.918 Y44.550 E0.32628
G1 X183.384 Y44.550 E0.01673
G1 X191.275 Y52.441 E0.34994
G1 X191.275 Y52.974 E0.01673
G1 X182.851 Y44.550 E0.37359
G1 X182.318 Y44.550 E0.01673
G1 X191.275 Y53.507 E0.39725
G1 X191.275 Y54.041 E0.01673
G1 X181.784 Y44.550 E0.42090
G1 X181.251 Y44.550 E0.01673
G1 X191.275 Y54.574 E0.44456
G1 X191.275 Y55.108 E0.01673
G1 X180.717 Y44.550 E0.46821
G1 X180.184 Y44.550 E0.01673
G1 X191.275 Y55.641 E0.49187
G1 X191.275 Y56.174 E0.01673
G1 X179.651 Y44.550 E0.51552
G1 X179.117 Y44.550 E0.01673
G1 X191.275 Y56.708 E0.53918
G1 X191.275 Y57.241 E0.01673
G1 X178.584 Y44.550 E0.56284
G1 X178.051 Y44.550 E0.01673
G1 X191.275 Y57.774 E0.58649
G1 X191.275 Y58.308 E0.01673
G1 X177.517 Y44.550 E0.61015
G1 X176.984 Y44.550 E0.01673
G1 X191.275 Y58.841 E0.63380
G1 X191.275 Y59.375 E0.01673
G1 X176.450 Y44.550 E0.65746
G1 X175.917 Y44.550 E0.01673
G1 X191.275 Y59.908 E0.68111
G1 X191.275 Y60.441 E0.01673
G1 X175.384 Y44.550 E0.70477
M73 Q0 S416
G1 X174.850 Y44.550 E0.01673
G1 X191.275 Y60.975 E0.72842
G1 X191.275 Y61.508 E0.01673
G1 X174.317 Y44.550 E0.75208
G1 X173.784 Y44.550 E0.01673
G1 X191.275 Y62.041 E0.77573
G1 X191.275 Y62.575 E0.01673
G1 X173.250 Y44.550 E0.79939
G1 X172.717 Y44.550 E0.01673
G1 X191.275 Y63.108 E0.82304
G1 X191.275 Y63.642 E0.01673
G1 X172.183 Y44.550 E0.84670
G1 X171.650 Y44.550 E0.01673
G1 X191.275 Y64.175 E0.87035
G1 X191.275 Y64.708 E0.01673
G1 X171.117 Y44.550 E0.89401
G1 X170.583 Y44.550 E0.01673
G1 X191.275 Y65.242 E0.91767
G1 X191.275 Y65.775 E0.01673
G1 X170.050 Y44.550 E0.94132
G1 X169.517 Y44.550 E0.01673
G1 X191.275 Y66.308 E0.96498
M73 P0 R409
G1 X191.275 Y66.842 E0.01673
G1 X168.983 Y44.550 E0.98863
G1 X168.450 Y44.550 E0.01673
G1 X191.275 Y67.375 E1.01229
G1 X191.275 Y67.909 E0.01673
G1 X167.916 Y44.550 E1.03594
G1 X167.383 Y44.550 E0.01673
G1 X191.275 Y68.442 E1.05960
G1 X191.275 Y68.975 E0.01673
G1 X166.850 Y44.550 E1.08325
G1 X166.316 Y44.550 E0.01673
G1 X191.275 Y69.509 E1.10691
G1 X191.275 Y70.042 E0.01673
G1 X165.783 Y44.550 E1.13056
G1 X165.250 Y44.550 E0.01673
G1 X191.275 Y70.575 E1.15422
G1 X191.275 Y71.109 E0.01673
G1 X164.716 Y44.550 E1.17787
G1 X164.183 Y44.550 E0.01673
G1 X191.275 Y71.642 E1.20153
G1 X191.275 Y72.176 E0.01673
G1 X163.649 Y44.550 E1.22518
G1 X163.116 Y44.550 E0.01673
G1 X191.275 Y72.709 E1.24884
G1 X191.275 Y73.242 E0.01673
G1 X162.583 Y44.550 E1.27250
G1 X162.049 Y44.550 E0.01673
G1 X191.275 Y73.776 E1.29615
G1 X191.275 Y74.309 E0.01673
G1 X161.516 Y44.550 E1.31981
G1 X160.983 Y44.550 E0.01673
G1 X191.275 Y74.842 E1.34346
G1 X191.275 Y75.376 E0.01673
G1 X160.449 Y44.550 E1.36712
G1 X159.916 Y44.550 E0.01673
G1 X191.275 Y75.909 E1.39077
G1 X191.275 Y76.443 E0.01673
G1 X159.382 Y44.550 E1.41443
G1 X158.849 Y44.550 E0.01673
G1 X191.275 Y76.976 E1.43808
G1 X191.275 Y77.509 E0.01673
G1 X158.316 Y44.550 E1.46174
G1 X157.782 Y44.550 E0.01673
G1 X191.275 Y78.043 E1.48539
G1 X191.275 Y78.576 E0.01673
G1 X157.249 Y44.550 E1.50905
M73 Q0 S415
G1 X156.716 Y44.550 E0.01673
G1 X191.275 Y79.109 E1.53270
G1 X191.275 Y79.643 E0.01673
G1 X156.182 Y44.550 E1.55636
G1 X155.649 Y44.550 E0.01673
G1 X191.275 Y80.176 E1.58001
G1 X191.275 Y80.710 E0.01673
G1 X155.115 Y44.550 E1.60367
G1 X154.582 Y44.550 E0.01673
G1 X191.275 Y81.243 E1.62733
M73 P0 R408
G1 X191.275 Y81.776 E0.01673
G1 X154.049 Y44.550 E1.65098
G1 X153.515 Y44.550 E0.01673
G1 X191.275 Y82.310 E1.67464
G1 X191.275 Y82.843 E0.01673
G1 X152.982 Y44.550 E1.69829
G1 X152.449 Y44.550 E0.01673
G1 X191.275 Y83.376 E1.72195
G1 X191.275 Y83.910 E0.01673
G1 X151.915 Y44.550 E1.74560
G1 X151.382 Y44.550 E0.01673
G1 X191.275 Y84.443 E1.76926
G1 X191.275 Y84.977 E0.01673
G1 X150.848 Y44.550 E1.79291
G1 X150.315 Y44.550 E0.01673
G1 X191.275 Y85.510 E1.81657
G1 X191.275 Y86.043 E0.01673
G1 X149.782 Y44.550 E1.84022
G1 X149.248 Y44.550 E0.01673
G1 X191.275 Y86.577 E1.86388
G1 X191.275 Y87.110 E0.01673
G1 X148.715 Y44.550 E1.88753
G1 X148.182 Y44.550 E0.01673
G1 X191.275 Y87.643 E1.91119
G1 X191.275 Y88.177 E0.01673
G1 X147.648 Y44.550 E1.93484
M73 P1 R408
G1 X147.115 Y44.550 E0.01673
G1 X191.275 Y88.710 E1.95850
M73 Q1 S415
G1 X191.275 Y89.244 E0.01673
G1 X146.581 Y44.550 E1.98216
G1 X146.048 Y44.550 E0.01673
G1 X191.275 Y89.777 E2.00581
M73 Q1 S414
G1 X191.275 Y90.310 E0.01673
G1 X145.515 Y44.550 E2.02947
G1 X144.981 Y44.550 E0.01673
G1 X191.275 Y90.844 E2.05312
G1 X191.275 Y91.377 E0.01673
G1 X144.448 Y44.550 E2.07678
G1 X143.915 Y44.550 E0.01673
G1 X191.275 Y91.910 E2.10043
M73 P1 R407
G1 X191.275 Y92.444 E0.01673
G1 X143.381 Y44.550 E2.12409
G1 X142.848 Y44.550 E0.01673
G1 X191.275 Y92.977 E2.14774
G1 X191.275 Y93.511 E0.01673
G1 X142.314 Y44.550 E2.17140
G1 X141.781 Y44.550 E0.01673
G1 X191.275 Y94.044 E2.19505
G1 X191.275 Y94.577 E0.01673
G1 X141.248 Y44.550 E2.21871
G1 X140.714 Y44.550 E0.01673
G1 X191.275 Y95.111 E2.24236
G1 X191.275 Y95.644 E0.01673
G1 X140.181 Y44.550 E2.26602
G1 X139.648 Y44.550 E0.01673
G1 X191.275 Y96.177 E2.28968
G1 X191.275 Y96.711 E0.01673
G1 X139.114 Y44.550 E2.31333
G1 X138.581 Y44.550 E0.01673
G1 X191.275 Y97.244 E2.33699
G1 X191.275 Y97.778 E0.01673
G1 X138.047 Y44.550 E2.36064
G1 X137.514 Y44.550 E0.01673
G1 X191.275 Y98.311 E2.38430
G1 X191.275 Y98.844 E0.01673
G1 X136.981 Y44.550 E2.40795
M73 Q1 S413
G1 X136.447 Y44.550 E0.01673
G1 X191.275 Y99.378 E2.43161
G1 X191.275 Y99.911 E0.01673
G1 X135.914 Y44.550 E2.45526
G1 X135.381 Y44.550 E0.01673
G1 X191.275 Y100.444 E2.47892
M73 P1 R406
G1 X191.275 Y100.978 E0.01673
G1 X134.847 Y44.550 E2.50257
G1 X134.314 Y44.550 E0.01673
G1 X191.275 Y101.511 E2.52623
G1 X191.275 Y102.045 E0.01673
G1 X133.780 Y44.550 E2.54988
G1 X133.247 Y44.550 E0.01673
G1 X191.275 Y102.578 E2.57354
G1 X191.275 Y103.111 E0.01673
G1 X132.714 Y44.550 E2.59719
G1 X132.180 Y44.550 E0.01673
G1 X191.275 Y103.645 E2.62085
G1 X191.275 Y104.178 E0.01673
G1 X131.647 Y44.550 E2.64451
G1 X131.114 Y44.550 E0.01673
G1 X191.275 Y104.711 E2.66816
G1 X191.275 Y105.245 E0.01673
G1 X130.580 Y44.550 E2.69182
G1 X130.047 Y44.550 E0.01673
G1 X191.275 Y105.778 E2.71547
G1 X191.275 Y106.312 E0.01673
G1 X129.513 Y44.550 E2.73913
M73 Q1 S412
G1 X128.980 Y44.550 E0.01673
G1 X191.275 Y106.845 E2.76278
G1 X191.275 Y107.378 E0.01673
G1 X128.447 Y44.550 E2.78644
G1 X127.913 Y44.550 E0.01673
G1 X191.275 Y107.912 E2.81009
M73 P1 R405
G1 X191.275 Y108.445 E0.01673
G1 X127.380 Y44.550 E2.83375
G1 X126.847 Y44.550 E0.01673
G1 X191.275 Y108.978 E2.85740
G1 X191.275 Y109.512 E0.01673
G1 X126.313 Y44.550 E2.88106
G1 X125.780 Y44.550 E0.01673
G1 X191.275 Y110.045 E2.90471
G1 X191.275 Y110.579 E0.01673
G1 X125.246 Y44.550 E2.92837
G1 X124.713 Y44.550 E0.01673
G1 X191.275 Y111.112 E2.95202
G1 X191.275 Y111.645 E0.01673
G1 X124.180 Y44.550 E2.97568
G1 X123.646 Y44.550 E0.01673
G1 X191.275 Y112.179 E2.99934
G1 X191.275 Y112.712 E0.01673
G1 X123.113 Y44.550 E3.02299
G1 X122.580 Y44.550 E0.01673
