; generated by PrusaSlicer 2.3.1+x64 on 2021-08-26 at 17:11:20 UTC

; 

; external perimeters extrusion width = 0.45mm
; perimeters extrusion width = 0.45mm
; infill extrusion width = 0.45mm
; solid infill extrusion width = 0.45mm
; top infill extrusion width = 0.40mm
; support material extrusion width = 0.35mm
; first layer extrusion width = 0.42mm

M73 P0 R252
M73 Q0 S256
M201 X1000 Y1000 Z200 E5000 ; sets maximum accelerations, mm/sec^2
M203 X200 Y200 Z12 E120 ; sets maximum feedrates, mm/sec
M204 P1250 R1250 T1250 ; sets acceleration (P, T) and retract acceleration (R), mm/sec^2
M205 X8.00 Y8.00 Z0.40 E4.50 ; sets the jerk limits, mm/sec
M205 S0 T0 ; sets the minimum extruding and travel feed rate, mm/sec
M107
;TYPE:Custom
M862.3 P "MK3S" ; printer model check
M862.1 P0.4 ; nozzle diameter check
M115 U3.10.0 ; tell printer latest fw version
G90 ; use absolute coordinates
M83 ; extruder relative mode
M104 S215 ; set extruder temp
M140 S60 ; set bed temp
M190 S60 ; wait for bed temp
M109 S215 ; wait for extruder temp
G28 W ; home all without mesh bed level
G80 ; mesh bed leveling
G1 Y-3.0 F1000.0 ; go outside print area
G92 E0.0
G1 X60.0 E9.0 F1000.0 ; intro line
G1 X100.0 E12.5 F1000.0 ; intro line
G92 E0.0
M221 S95

; Don't change E values below. Excessive value can damage the printer.

M907 E538 ; set extruder motor current
G21 ; set units to millimeters
G90 ; use absolute coordinates
M83 ; use relative distances for extrusion
M900 K0.05 ; Filament gcode LA 1.5
M900 K30 ; Filament gcode LA 1.0
;LAYER_CHANGE
;Z:0.2
;HEIGHT:0.2
;BEFORE_LAYER_CHANGE
G92 E0.0
;0.2


G1 E-0.80000 F2100.000
G1 Z0.400 F10800.000
;AFTER_LAYER_CHANGE
;0.2
G1 X55.199 Y50.871
G1 Z0.200
G1 E0.80000 F2100.000
M204 S1000
;TYPE:Skirt
;WIDTH:0.42
G1 F1200.000
G1 X55.884 Y50.123 E0.03180
G1 X56.415 Y49.744 E0.02048
G1 X57.317 Y49.373 E0.03056
G1 X96.537 Y39.741 E1.26627
G1 X97.076 Y39.674 E0.01704
G1 X104.898 Y39.674 E0.24525
G1 X155.944 Y41.999 E1.60216
G1 X192.553 Y49.340 E1.17070
G1 X193.813 Y49.880 E0.04300
G1 X194.784 Y50.845 E0.04292
G1 X195.279 Y51.919 E0.03706
G1 X195.433 Y52.856 E0.02980
G1 X195.433 Y165.999 E3.54751
G1 X195.301 Y166.860 E0.02732
G1 X194.916 Y167.790 E0.03155
G1 X194.568 Y168.274 E0.01870
G1 X193.830 Y168.959 E0.03157
G1 X192.756 Y169.454 E0.03706
G1 X191.818 Y169.608 E0.02980
G1 X58.180 Y169.608 E4.19015
G1 X57.315 Y169.476 E0.02744
G1 X56.389 Y169.092 E0.03143
G1 X55.901 Y168.743 E0.01882
G1 X55.216 Y168.005 E0.03157
G1 X54.721 Y166.931 E0.03706
G1 X54.567 Y165.990 E0.02992
G1 X54.567 Y52.866 E3.54691
M73 P0 R251
G1 X54.766 Y51.791 E0.03428
G1 X55.173 Y50.925 E0.03000
; printing object top.stl id:0 copy 0
;WIPE_START
G1 F8640.000
G1 X55.884 Y50.123 E-0.24741
G1 X56.415 Y49.744 E-0.15080
G1 X57.317 Y49.373 E-0.22504
G1 X57.892 Y49.232 E-0.13675
;WIPE_END
G1 E-0.04000 F2100.000
G1 Z0.600 F10800.000
G1 X92.571 Y52.087
G1 Z0.200
G1 E0.80000 F2100.000
;TYPE:Support material
G1 F1200.000
G1 X92.571 Y46.665 E0.16999
G1 X93.325 Y46.665 E0.02365
G1 X93.325 Y51.917 E0.16466
G1 X94.079 Y51.917 E0.02365
G1 X94.079 Y46.665 E0.16466
G1 X94.350 Y46.665 E0.00849
G1 X94.350 Y44.358 E0.07234
G1 X94.834 Y44.358 E0.01516
G1 X94.834 Y51.917 E0.23700
G1 X95.588 Y51.917 E0.02365
G1 X95.588 Y44.358 E0.23700
G1 X96.342 Y44.358 E0.02365
G1 X96.342 Y51.917 E0.23700
G1 X97.096 Y51.917 E0.02365
G1 X97.096 Y42.051 E0.30934
G1 X97.850 Y42.051 E0.02365
G1 X97.850 Y51.917 E0.30934
M73 Q0 S255
G1 X98.604 Y51.917 E0.02365
G1 X98.604 Y42.051 E0.30934
G1 X99.359 Y42.051 E0.02365
G1 X99.359 Y51.917 E0.30934
G1 X100.113 Y51.917 E0.02365
G1 X100.113 Y42.051 E0.30934
G1 X100.867 Y42.051 E0.02365
G1 X100.867 Y51.917 E0.30934
G1 X101.621 Y51.917 E0.02365
G1 X101.621 Y42.051 E0.30934
G1 X102.375 Y42.051 E0.02365
G1 X102.375 Y51.917 E0.30934
G1 X103.129 Y51.917 E0.02365
G1 X103.129 Y42.051 E0.30934
G1 X103.884 Y42.051 E0.02365
G1 X103.884 Y51.917 E0.30934
G1 X104.638 Y51.917 E0.02365
G1 X104.638 Y42.051 E0.30934
G1 X104.894 Y42.051 E0.00804
G1 X104.894 Y44.358 E0.07234
G1 X105.392 Y44.358 E0.01561
G1 X105.392 Y51.917 E0.23700
G1 X106.146 Y51.917 E0.02365
G1 X106.146 Y44.358 E0.23700
G1 X106.900 Y44.358 E0.02365
G1 X106.900 Y52.087 E0.24232
;WIPE_START
G1 F8640.000
G1 X106.900 Y48.795 E-0.76000
;WIPE_END
G1 E-0.04000 F2100.000
G1 Z0.600 F10800.000
G1 X143.100 Y52.087
G1 Z0.200
G1 E0.80000 F2100.000
G1 F1200.000
G1 X143.100 Y44.358 E0.24232
G1 X143.854 Y44.358 E0.02365
G1 X143.854 Y51.917 E0.23700
G1 X144.608 Y51.917 E0.02365
G1 X144.608 Y44.358 E0.23700
G1 X145.362 Y44.358 E0.02365
G1 X145.362 Y51.917 E0.23700
G1 X146.116 Y51.917 E0.02365
G1 X146.116 Y44.358 E0.23700
G1 X146.871 Y44.358 E0.02365
G1 X146.871 Y51.917 E0.23700
G1 X147.625 Y51.917 E0.02365
G1 X147.625 Y44.358 E0.23700
G1 X148.379 Y44.358 E0.02365
G1 X148.379 Y51.917 E0.23700
G1 X149.133 Y51.917 E0.02365
G1 X149.133 Y44.358 E0.23700
G1 X149.887 Y44.358 E0.02365
G1 X149.887 Y51.917 E0.23700
G1 X150.641 Y51.917 E0.02365
G1 X150.641 Y44.358 E0.23700
G1 X151.396 Y44.358 E0.02365
G1 X151.396 Y51.917 E0.23700
G1 X152.150 Y51.917 E0.02365
G1 X152.150 Y44.358 E0.23700
G1 X152.904 Y44.358 E0.02365
G1 X152.904 Y51.917 E0.23700
G1 X153.658 Y51.917 E0.02365
G1 X153.658 Y44.358 E0.23700
G1 X154.412 Y44.358 E0.02365
G1 X154.412 Y51.917 E0.23700
G1 X155.166 Y51.917 E0.02365
G1 X155.166 Y44.358 E0.23700
G1 X155.650 Y44.358 E0.01516
G1 X155.650 Y46.665 E0.07234
G1 X155.921 Y46.665 E0.00849
G1 X155.921 Y51.917 E0.16466
G1 X156.675 Y51.917 E0.02365
G1 X156.675 Y46.665 E0.16466
G1 X157.429 Y46.665 E0.02365
G1 X157.429 Y52.087 E0.16999
;WIPE_START
G1 F8640.000
G1 X157.429 Y48.795 E-0.76000
;WIPE_END
G1 E-0.04000 F2100.000
G1 Z0.600 F10800.000
G1 X130.178 Y142.106
G1 Z0.200
G1 E0.80000 F2100.000
;TYPE:Perimeter
G1 F1200.000
G1 X130.255 Y142.277 E0.00589
G1 X129.249 Y141.978 E0.03291
G1 X128.937 Y141.849 E0.01060
G1 X129.187 Y141.797 E0.00803
G1 X129.424 Y141.786 E0.00743
G1 X129.797 Y141.819 E0.01174
G1 X130.027 Y141.920 E0.00787
G1 X130.142 Y142.058 E0.00564
;WIPE_START
G1 F8640.000
G1 X130.255 Y142.277 E-0.05702
G1 X129.249 Y141.978 E-0.24237
G1 X128.937 Y141.849 E-0.07804
G1 X129.187 Y141.797 E-0.05912
G1 X129.424 Y141.786 E-0.05470
G1 X129.797 Y141.819 E-0.08642
G1 X130.027 Y141.920 E-0.05799
G1 X130.142 Y142.058 E-0.04155
;WIPE_END
G1 E-0.12280 F2100.000
G1 Z0.600 F10800.000
G1 X128.442 Y145.186
G1 Z0.200
G1 E0.80000 F2100.000
G1 F1200.000
G1 X130.181 Y145.657 E0.05648
G1 X130.368 Y145.739 E0.00642
G1 X130.446 Y145.801 E0.00312
G1 X130.437 Y145.859 E0.00184
G1 X130.332 Y146.004 E0.00560
G1 X130.185 Y146.087 E0.00531
G1 X130.011 Y146.155 E0.00586
G1 X129.813 Y146.187 E0.00630
G1 X129.564 Y146.198 E0.00779
G1 X129.316 Y146.181 E0.00779
G1 X129.124 Y146.144 E0.00615
G1 X128.818 Y145.985 E0.01081
G1 X128.704 Y145.850 E0.00556
G1 X128.590 Y145.669 E0.00669
G1 X128.457 Y145.244 E0.01395
;WIPE_START
G1 F8640.000
G1 X130.181 Y145.657 E-0.40927
G1 X130.368 Y145.739 E-0.04727
G1 X130.446 Y145.801 E-0.02296
G1 X130.437 Y145.859 E-0.01357
G1 X130.332 Y146.004 E-0.04125
G1 X130.185 Y146.087 E-0.03912
G1 X130.011 Y146.155 E-0.04317
G1 X129.813 Y146.187 E-0.04638
G1 X129.564 Y146.198 E-0.05735
G1 X129.393 Y146.187 E-0.03967
;WIPE_END
G1 E-0.04000 F2100.000
G1 Z0.600 F10800.000
G1 X133.482 Y144.387
G1 Z0.200
G1 E0.80000 F2100.000
G1 F1200.000
G1 X134.312 Y144.517 E0.02635
G1 X134.037 Y144.701 E0.01038
G1 X133.782 Y144.974 E0.01171
G1 X133.693 Y145.100 E0.00485
G1 X133.668 Y144.908 E0.00609
G1 X133.507 Y144.441 E0.01548
G1 X133.247 Y143.940 F10800.000
G1 F1200.000
G1 X133.044 Y143.666 E0.01066
G1 X132.750 Y143.346 E0.01365
G1 X132.400 Y143.080 E0.01378
G1 X132.204 Y142.966 E0.00711
G1 X133.618 Y142.920 E0.04438
G1 X133.267 Y143.883 E0.03215
;WIPE_START
G1 F8640.000
G1 X133.044 Y143.666 E-0.07168
G1 X132.750 Y143.346 E-0.10051
G1 X132.400 Y143.080 E-0.10149
G1 X132.204 Y142.966 E-0.05239
G1 X133.618 Y142.920 E-0.32685
G1 X133.459 Y143.356 E-0.10708
;WIPE_END
G1 E-0.04000 F2100.000
G1 Z0.600 F10800.000
G1 X119.679 Y145.106
G1 Z0.200
G1 E0.80000 F2100.000
G1 F1200.000
G1 X119.488 Y145.955 E0.02729
G1 X119.444 Y146.085 E0.00431
G1 X119.350 Y146.234 E0.00551
G1 X119.248 Y146.292 E0.00370
G1 X119.128 Y146.307 E0.00379
G1 X118.982 Y146.290 E0.00461
G1 X118.883 Y146.261 E0.00323
G1 X118.814 Y146.217 E0.00256
G1 X118.752 Y146.160 E0.00265
G1 X118.659 Y145.973 E0.00655
G1 X118.574 Y145.717 E0.00843
G1 X118.539 Y145.438 E0.00881
G1 X118.541 Y144.756 E0.02140
G1 X118.573 Y144.522 E0.00741
G1 X118.649 Y144.310 E0.00706
G1 X118.731 Y144.158 E0.00543
G1 X118.865 Y144.062 E0.00515
G1 X118.958 Y144.037 E0.00303
G1 X119.086 Y144.023 E0.00405
G1 X119.241 Y144.044 E0.00491
G1 X119.319 Y144.086 E0.00277
G1 X119.412 Y144.232 E0.00543
G1 X119.622 Y145.113 E0.02841
;WIPE_START
G1 F8640.000
G1 X119.488 Y145.955 E-0.19673
G1 X119.444 Y146.085 E-0.03173
G1 X119.350 Y146.234 E-0.04056
G1 X119.248 Y146.292 E-0.02728
G1 X119.128 Y146.307 E-0.02790
G1 X118.982 Y146.290 E-0.03396
G1 X118.883 Y146.261 E-0.02380
G1 X118.814 Y146.217 E-0.01882
G1 X118.752 Y146.160 E-0.01952
G1 X118.659 Y145.973 E-0.04826
G1 X118.574 Y145.717 E-0.06212
G1 X118.539 Y145.438 E-0.06487
G1 X118.541 Y144.756 E-0.15760
G1 X118.545 Y144.727 E-0.00686
;WIPE_END
G1 E-0.04000 F2100.000
G1 Z0.600 F10800.000
G1 X97.561 Y145.499
G1 Z0.200
G1 E0.80000 F2100.000
G1 F1200.000
G1 X96.573 Y145.281 E0.03172
G1 X95.274 Y145.056 E0.04136
G1 X97.546 Y144.635 E0.07246
G1 X97.560 Y145.439 E0.02522
;WIPE_START
G1 F8640.000
G1 X96.573 Y145.281 E-0.23066
G1 X95.274 Y145.056 E-0.30457
G1 X96.231 Y144.879 E-0.22477
;WIPE_END
G1 E-0.04000 F2100.000
G1 Z0.600 F10800.000
G1 X94.993 Y145.108
G1 Z0.200
G1 E0.80000 F2100.000
G1 F1200.000
G1 X94.802 Y145.955 E0.02721
G1 X94.758 Y146.085 E0.00431
G1 X94.665 Y146.234 E0.00551
G1 X94.562 Y146.292 E0.00370
G1 X94.442 Y146.307 E0.00379
G1 X94.296 Y146.290 E0.00461
G1 X94.197 Y146.261 E0.00323
G1 X94.129 Y146.217 E0.00256
G1 X94.067 Y146.160 E0.00265
G1 X93.973 Y145.973 E0.00655
G1 X93.889 Y145.717 E0.00843
G1 X93.854 Y145.438 E0.00881
G1 X93.855 Y144.756 E0.02140
G1 X93.887 Y144.522 E0.00741
G1 X93.964 Y144.310 E0.00706
G1 X94.046 Y144.158 E0.00542
G1 X94.179 Y144.062 E0.00515
G1 X94.272 Y144.037 E0.00303
G1 X94.401 Y144.023 E0.00405
G1 X94.556 Y144.044 E0.00491
G1 X94.633 Y144.086 E0.00277
G1 X94.727 Y144.232 E0.00543
G1 X94.937 Y145.115 E0.02846
;WIPE_START
G1 F8640.000
G1 X94.802 Y145.955 E-0.19642
G1 X94.758 Y146.085 E-0.03173
G1 X94.665 Y146.234 E-0.04057
G1 X94.562 Y146.292 E-0.02728
G1 X94.442 Y146.307 E-0.02790
G1 X94.296 Y146.290 E-0.03396
G1 X94.197 Y146.261 E-0.02380
G1 X94.129 Y146.217 E-0.01882
G1 X94.067 Y146.160 E-0.01952
G1 X93.973 Y145.973 E-0.04826
G1 X93.889 Y145.717 E-0.06212
G1 X93.854 Y145.438 E-0.06487
G1 X93.855 Y144.756 E-0.15760
G1 X93.859 Y144.725 E-0.00717
;WIPE_END
G1 E-0.04000 F2100.000
G1 Z0.600 F10800.000
G1 X164.907 Y146.408
G1 Z0.200
G1 E0.80000 F2100.000
G1 F1200.000
G1 X165.200 Y146.366 E0.00925
G1 X165.105 Y146.408 E0.00324
G1 X164.967 Y146.415 E0.00433
;WIPE_START
G1 F8640.000
G1 X165.200 Y146.366 E-0.05486
G1 X165.105 Y146.408 E-0.02389
G1 X164.967 Y146.415 E-0.03186
;WIPE_END
G1 E-0.68939 F2100.000
G1 Z0.600 F10800.000
G1 X140.188 Y141.281
G1 Z0.200
G1 E0.80000 F2100.000
G1 F1200.000
G1 X141.779 Y141.304 E0.04989
G1 X142.253 Y141.370 E0.01499
G1 X143.049 Y141.649 E0.02646
G1 X143.245 Y141.479 E0.00812
G1 X143.647 Y141.306 E0.01373
G1 X144.384 Y141.148 E0.02363
G1 X144.782 Y141.168 E0.01251
G1 X145.148 Y141.223 E0.01158
G1 X145.501 Y141.336 E0.01163
G1 X145.856 Y141.492 E0.01218
G1 X146.258 Y141.787 E0.01562
G1 X146.699 Y141.487 E0.01674
G1 X147.041 Y141.340 E0.01168
G1 X147.385 Y141.228 E0.01134
G1 X148.083 Y141.147 E0.02201
G1 X148.474 Y141.169 E0.01228
G1 X148.873 Y141.229 E0.01265
G1 X149.259 Y141.357 E0.01278
G1 X149.648 Y141.533 E0.01337
G1 X149.976 Y141.773 E0.01273
G1 X150.267 Y142.047 E0.01254
G1 X150.497 Y142.373 E0.01249
G1 X150.694 Y142.738 E0.01301
G1 X150.812 Y143.174 E0.01416
G1 X150.884 Y143.569 E0.01259
G1 X150.911 Y143.964 E0.01241
G1 X150.915 Y149.086 E0.16061
G1 X147.694 Y149.086 E0.10100
G1 X147.696 Y144.460 E0.14503
G1 X147.681 Y144.236 E0.00706
G1 X147.621 Y143.989 E0.00797
G1 X147.512 Y144.006 E0.00345
G1 X147.409 Y144.059 E0.00365
G1 X147.334 Y144.135 E0.00335
G1 X147.273 Y144.262 E0.00440
G1 X147.189 Y144.742 E0.01528
G1 X147.174 Y145.009 E0.00839
G1 X147.170 Y149.086 E0.12782
G1 X143.950 Y149.086 E0.10097
G1 X143.951 Y144.616 E0.14013
G1 X143.916 Y144.103 E0.01614
G1 X143.891 Y143.987 E0.00373
G1 X143.745 Y144.007 E0.00464
G1 X143.642 Y144.056 E0.00355
G1 X143.561 Y144.134 E0.00354
G1 X143.506 Y144.242 E0.00379
G1 X143.425 Y144.713 E0.01499
G1 X143.411 Y144.972 E0.00815
G1 X143.409 Y149.094 E0.12922
G1 X140.454 Y149.054 E0.09266
G1 X137.645 Y149.092 E0.08808
G1 X137.570 Y148.871 E0.00731
G1 X137.395 Y148.960 E0.00615
G1 X137.068 Y149.074 E0.01087
G1 X136.737 Y149.163 E0.01074
G1 X136.398 Y149.208 E0.01072
G1 X136.053 Y149.228 E0.01083
G1 X135.535 Y149.190 E0.01631
G1 X134.994 Y149.077 E0.01733
G1 X134.490 Y148.835 E0.01751
G1 X134.004 Y148.504 E0.01845
G1 X133.657 Y148.077 E0.01725
G1 X133.391 Y147.613 E0.01677
G1 X133.338 Y147.390 E0.00720
G1 X133.233 Y147.601 E0.00738
G1 X132.921 Y148.003 E0.01598
G1 X132.566 Y148.360 E0.01576
G1 X132.152 Y148.639 E0.01566
G1 X131.709 Y148.871 E0.01570
G1 X131.155 Y149.043 E0.01819
G1 X130.615 Y149.165 E0.01733
G1 X130.070 Y149.220 E0.01720
G1 X129.530 Y149.239 E0.01692
G1 X128.775 Y149.197 E0.02372
G1 X127.993 Y149.060 E0.02488
G1 X127.254 Y148.751 E0.02510
G1 X126.520 Y148.309 E0.02686
G1 X125.992 Y147.690 E0.02554
G1 X125.588 Y147.042 E0.02394
G1 X125.349 Y146.322 E0.02378
G1 X125.056 Y144.800 E0.04860
G1 X127.087 Y144.616 E0.06396
G1 X126.579 Y144.291 E0.01893
G1 X126.135 Y143.792 E0.02095
G1 X125.784 Y143.242 E0.02044
G1 X125.596 Y142.617 E0.02047
G1 X125.512 Y141.974 E0.02032
G1 X125.554 Y141.519 E0.01433
G1 X125.641 Y141.091 E0.01370
G1 X125.805 Y140.687 E0.01368
G1 X126.015 Y140.296 E0.01389
G1 X126.312 Y139.930 E0.01480
G1 X126.645 Y139.603 E0.01461
G1 X127.031 Y139.346 E0.01455
G1 X127.439 Y139.133 E0.01445
G1 X127.944 Y138.969 E0.01664
G1 X128.445 Y138.849 E0.01614
G1 X129.043 Y138.791 E0.01885
G1 X129.442 Y138.775 E0.01251
G1 X130.176 Y138.810 E0.02306
G1 X130.939 Y138.938 E0.02424
G1 X131.662 Y139.233 E0.02450
G1 X132.379 Y139.658 E0.02614
G1 X132.861 Y140.207 E0.02290
G1 X133.230 Y140.795 E0.02177
G1 X133.428 Y141.458 E0.02170
G1 X133.628 Y142.900 E0.04563
G1 X133.812 Y142.531 E0.01292
G1 X134.152 Y142.111 E0.01694
G1 X134.579 Y141.711 E0.01834
G1 X135.166 Y141.431 E0.02040
G1 X135.735 Y141.244 E0.01877
G1 X136.429 Y141.162 E0.02190
G1 X137.311 Y141.156 E0.02768
G1 X137.813 Y141.201 E0.01578
G1 X138.305 Y141.310 E0.01581
G1 X138.812 Y141.474 E0.01670
G1 X139.142 Y141.656 E0.01183
G1 X139.448 Y141.873 E0.01175
G1 X139.709 Y142.150 E0.01195
G1 X139.963 Y142.500 E0.01356
G1 X140.130 Y143.015 E0.01699
G1 X140.189 Y143.294 E0.00894
G1 X140.189 Y141.341 E0.06125
;WIPE_START
G1 F8640.000
G1 X141.779 Y141.304 E-0.36743
G1 X142.253 Y141.370 E-0.11041
G1 X143.049 Y141.649 E-0.19487
G1 X143.245 Y141.479 E-0.05982
G1 X143.354 Y141.432 E-0.02747
;WIPE_END
G1 E-0.04000 F2100.000
G1 Z0.600 F10800.000
G1 X133.200 Y142.556
G1 Z0.200
G1 E0.80000 F2100.000
;TYPE:External perimeter
G1 F1200.000
G1 X131.870 Y142.600 E0.04173
G1 X130.786 Y142.537 E0.03404
G1 X130.505 Y141.914 E0.02142
G1 X130.262 Y141.618 E0.01201
G1 X130.092 Y141.527 E0.00604
G1 X129.892 Y141.452 E0.00671
G1 X129.673 Y141.419 E0.00693
G1 X129.149 Y141.422 E0.01644
G1 X128.906 Y141.459 E0.00772
G1 X128.680 Y141.542 E0.00754
G1 X128.480 Y141.645 E0.00705
G1 X128.405 Y141.720 E0.00334
G1 X128.378 Y141.836 E0.00372
G1 X128.401 Y141.942 E0.00342
G1 X128.477 Y142.035 E0.00375
G1 X128.771 Y142.189 E0.01040
G1 X129.125 Y142.335 E0.01200
G1 X129.918 Y142.562 E0.02586
G1 X130.402 Y142.724 E0.01600
G1 X130.859 Y142.905 E0.01543
G1 X131.345 Y143.021 E0.01566
G1 X131.858 Y143.201 E0.01705
G1 X132.190 Y143.395 E0.01207
G1 X132.495 Y143.626 E0.01200
G1 X132.753 Y143.907 E0.01196
